!!!!SEGMENT: pl-stab--12a--005_raszek-waclaw--missa-solemnis-ex-g-in-gloria-dei-patris-amen.krn
!!!cenid: 18xx:3525
!!!COM: Raszek, Wacław
!!!COM-rismid: pe30020314
!!!CDT: >1848->1848
!!!CNT:
!!!OPR: Missa Solemnis ex G
!!!OTL: In gloria Dei Patris amen
!!!OMV: 005
!!!PDT: 1815
!!!AGN:
!!!SMS-siglum: PL-STAb
!!!SMS-shelfmark: 12a
!!!SMS-shelfwork: M
!!!SMS-variant:
!!!SMS-altvar:
!!!NIFC-rismid: 301050679
!!!URL-scan: https://repozytorium.nifc.pl/islandora/object/pl-stab%3A3A24642464/datastream/PDF/view
!!!ONB-nifc: UWAGA: części Mszy: 1. Kyrie, 2. Gloria, 3. Domine Deus, 4. Cum sancto spiritu, 5. In gloria Dei Patris amen, 6. Credo, 7. Et incarnatus, 8. Et resurrexit, 9. Sanctus, 10. Pleni sunt, 11. Benedictus, 12. Agnus Dei, 13. Dona nobis
!!!key: G
**kern	**fba	**dynam	**kern	**dynam	**kern	**dynam	**kern	**dynam	**kern	**text	**kern	**text	**kern	**text	**kern	**text	**kern	**dynam	**kern	**dynam	**kern	**dynam	**kern	**dynam
*part12	*part12	*part12	*part11	*part11	*part10	*part10	*part9	*part9	*part8	*part8	*part7	*part7	*part6	*part6	*part5	*part5	*part4	*part4	*part3	*part3	*part2	*part2	*part1	*part1
*staff12	*	*	*staff11	*	*staff10	*	*staff9	*	*staff8	*staff8	*staff7	*staff7	*staff6	*staff6	*staff5	*staff5	*staff4	*	*staff3	*	*staff2	*	*staff1	*
*	*	*	*group4	*	*group4	*	*group4	*	*group3	*	*group3	*	*group3	*	*group3	*	*group2	*	*group2	*	*group1	*	*group1	*
*I"Organo	*	*	*I"Alto Viola	*	*I"Violino Secundo	*	*I"Violino Primo	*	*I"Baſso	*	*I"Tenore	*	*I"Alto	*	*I"Canto	*	*I"Cornu 2do	*	*I"Cornu 1mo	*	*I"Flauto IIdo	*	*I"Flauto 1mo	*
*I'org	*	*	*I'vla	*	*I'vl 2	*	*I'vl 1	*	*I'B	*	*I'T	*	*I'A	*	*I'S	*	*I'cor 2	*	*I'cor 1	*	*I'fl 2	*	*I'fl 1	*
*Iorgan	*	*	*Iviola	*	*Ivioln	*	*Ivioln	*	*Ibass	*	*Itenor	*	*Ialto	*	*Isoprn	*	*Icor	*	*Icor	*	*Iflt	*	*Iflt	*
*ICklav	*	*	*ICstr	*	*ICstr	*	*ICstr	*	*ICvox	*	*ICvox	*	*ICvox	*	*ICvox	*	*ICbras	*	*ICbras	*	*ICww	*	*ICww	*
*clefF4	*	*	*clefC3	*	*clefG2	*	*clefG2	*	*clefF4	*	*clefC4	*	*clefC3	*	*clefC1	*	*clefG2	*	*clefG2	*	*clefG2	*	*clefG2	*
*	*	*	*	*	*	*	*	*	*	*	*	*	*	*	*	*	*ITrd3c5	*	*ITrd3c5	*	*	*	*	*
*k[f#]	*	*	*k[f#]	*	*k[f#]	*	*k[f#]	*	*k[f#]	*	*k[f#]	*	*k[f#]	*	*k[f#]	*	*k[f#]	*	*k[f#]	*	*k[f#]	*	*k[f#]	*
*G:	*	*	*G:	*	*G:	*	*G:	*	*G:	*	*G:	*	*G:	*	*G:	*	*G:	*	*G:	*	*G:	*	*G:	*
*M2/2	*	*	*M2/2	*	*M2/2	*	*M2/2	*	*M2/2	*	*M2/2	*	*M2/2	*	*M2/2	*	*M2/2	*	*M2/2	*	*M2/2	*	*M2/2	*
*met(c|)	*	*	*met(c|)	*	*met(c|)	*	*met(C.|)	*	*met(C.|)	*	*met(C.|)	*	*met(C.)	*	*met(C.|)	*	*met(C.|)	*	*met(c|)	*	*met(C.)	*	*met(c|)	*
=1	=1	=1	=1	=1	=1	=1	=1	=1	=1	=1	=1	=1	=1	=1	=1	=1	=1	=1	=1	=1	=1	=1	=1	=1
!LO:TX:a:B:t=Allo	!	!	!LO:TX:a:B:t=allo	!	!LO:TX:a:B:t=Allo	!	!LO:TX:a:B:t=Allo	!	!LO:TX:a:B:t=Allo	!	!LO:TX:a:B:t=allo	!	!LO:TX:a:B:t=allo	!	!LO:TX:a:B:t=allo	!	!LO:TX:a:B:t=Allo	!	!LO:TX:a:B:t=Allo	!	!LO:TX:a:B:t=allo	!	!LO:TX:a:B:t=Allo	!
2r	.	.	00r	.	00r	.	00r	.	2r	.	00r	.	00r	.	00r	.	00r	.	00r	.	00r	.	00r	.
*2\right	*	*	*	*	*	*	*	*	*2\right	*	*	*	*	*	*	*	*	*	*	*	*	*	*	*
2G\	.	.	.	.	.	.	.	.	2G\	In	.	.	.	.	.	.	.	.	.	.	.	.	.	.
=2	=2	=2	=2	=2	=2	=2	=2	=2	=2	=2	=2	=2	=2	=2	=2	=2	=2	=2	=2	=2	=2	=2	=2	=2
4G\	.	.	.	.	.	.	.	.	4G\	glo-	.	.	.	.	.	.	.	.	.	.	.	.	.	.
8F#\L	.	.	.	.	.	.	.	.	8F#\	-ri-	.	.	.	.	.	.	.	.	.	.	.	.	.	.
8G\J	.	.	.	.	.	.	.	.	8G\	-a	.	.	.	.	.	.	.	.	.	.	.	.	.	.
4A\	.	.	.	.	.	.	.	.	4A\	De-	.	.	.	.	.	.	.	.	.	.	.	.	.	.
4G\	.	.	.	.	.	.	.	.	4G\	-i	.	.	.	.	.	.	.	.	.	.	.	.	.	.
=3	=3	=3	=3	=3	=3	=3	=3	=3	=3	=3	=3	=3	=3	=3	=3	=3	=3	=3	=3	=3	=3	=3	=3	=3
4F#\	.	.	.	.	.	.	.	.	4F#\	Pa-	.	.	.	.	.	.	.	.	.	.	.	.	.	.
4E\	.	.	.	.	.	.	.	.	4E\	.	.	.	.	.	.	.	.	.	.	.	.	.	.	.
4D\	.	.	.	.	.	.	.	.	4D\	.	.	.	.	.	.	.	.	.	.	.	.	.	.	.
8E\L	.	.	.	.	.	.	.	.	8E\L	-tris	.	.	.	.	.	.	.	.	.	.	.	.	.	.
8F#\J	.	.	.	.	.	.	.	.	8F#\J	.	.	.	.	.	.	.	.	.	.	.	.	.	.	.
=4	=4	=4	=4	=4	=4	=4	=4	=4	=4	=4	=4	=4	=4	=4	=4	=4	=4	=4	=4	=4	=4	=4	=4	=4
4G\	.	.	.	.	.	.	.	.	4G\	A-	.	.	.	.	.	.	.	.	.	.	.	.	.	.
4A\	.	.	.	.	.	.	.	.	4A\	.	.	.	.	.	.	.	.	.	.	.	.	.	.	.
4B\	.	.	.	.	.	.	.	.	4B\	.	.	.	.	.	.	.	.	.	.	.	.	.	.	.
4A\	.	.	.	.	.	.	.	.	4A\	.	.	.	.	.	.	.	.	.	.	.	.	.	.	.
=5	=5	=5	=5	=5	=5	=5	=5	=5	=5	=5	=5	=5	=5	=5	=5	=5	=5	=5	=5	=5	=5	=5	=5	=5
4G\	.	.	0r	.	00r	.	00r	.	4G\	.	0r	.	00r	.	00r	.	00r	.	00r	.	00r	.	00r	.
4F#\	.	.	.	.	.	.	.	.	4F#\	.	.	.	.	.	.	.	.	.	.	.	.	.	.	.
4E\	.	.	.	.	.	.	.	.	4E\	.	.	.	.	.	.	.	.	.	.	.	.	.	.	.
8F#\L	.	.	.	.	.	.	.	.	8F#\L	.	.	.	.	.	.	.	.	.	.	.	.	.	.	.
!	!	!	!	!	!	!	!	!	!LO:SIC:v:s=8G#\J	!	!	!	!	!	!	!	!	!	!	!	!	!	!	!
8G#X\J	.	.	.	.	.	.	.	.	8G\J	.	.	.	.	.	.	.	.	.	.	.	.	.	.	.
=6	=6	=6	=6	=6	=6	=6	=6	=6	=6	=6	=6	=6	=6	=6	=6	=6	=6	=6	=6	=6	=6	=6	=6	=6
4A\	.	.	.	.	.	.	.	.	4A\	.	.	.	.	.	.	.	.	.	.	.	.	.	.	.
4B\	.	.	.	.	.	.	.	.	4B\	.	.	.	.	.	.	.	.	.	.	.	.	.	.	.
4c\	.	.	.	.	.	.	.	.	4c\	.	.	.	.	.	.	.	.	.	.	.	.	.	.	.
4A\	.	.	.	.	.	.	.	.	4A\	.	.	.	.	.	.	.	.	.	.	.	.	.	.	.
=7	=7	=7	=7	=7	=7	=7	=7	=7	=7	=7	=7	=7	=7	=7	=7	=7	=7	=7	=7	=7	=7	=7	=7	=7
4F#\	.	.	1r	.	.	.	.	.	4F#\	.	1r	.	.	.	.	.	.	.	.	.	.	.	.	.
4E\	.	.	.	.	.	.	.	.	4E\	.	.	.	.	.	.	.	.	.	.	.	.	.	.	.
4D\	.	.	.	.	.	.	.	.	4D\	.	.	.	.	.	.	.	.	.	.	.	.	.	.	.
8E\L	.	.	.	.	.	.	.	.	8E\L	.	.	.	.	.	.	.	.	.	.	.	.	.	.	.
8F#\J	.	.	.	.	.	.	.	.	8F#\J	.	.	.	.	.	.	.	.	.	.	.	.	.	.	.
!	!	!	!	!	!	!	!	!	!LO:LB:g=original	!	!	!	!	!	!	!	!	!	!	!	!	!	!	!
=8	=8	=8	=8	=8	=8	=8	=8	=8	=8	=8	=8	=8	=8	=8	=8	=8	=8	=8	=8	=8	=8	=8	=8	=8
*^	*	*	*	*	*	*	*	*	*	*	*	*	*	*	*	*	*	*	*	*	*	*	*	*
2ryy	2G\	.	.	2r	.	.	.	.	.	2G\	-men	2r	.	.	.	.	.	.	.	.	.	.	.	.	.
*	*	*	*	*2\right	*	*	*	*	*	*	*	*2\right	*	*	*	*	*	*	*	*	*	*	*	*	*
2d/	2r	.	.	2d\	.	.	.	.	.	2r	.	2d\	In	.	.	.	.	.	.	.	.	.	.	.	.
!LO:LB:g=original	!	!	!	!	!	!	!	!	!	!	!	!	!	!	!	!	!	!	!	!	!	!	!	!	!
=9	=9	=9	=9	=9	=9	=9	=9	=9	=9	=9	=9	=9	=9	=9	=9	=9	=9	=9	=9	=9	=9	=9	=9	=9	=9
4d/	2r	.	.	4d\	.	00r	.	00r	.	2r	.	4d\	glo-	00r	.	00r	.	00r	.	00r	.	00r	.	00r	.
8c#X/L	.	.	.	8c#X\L	.	.	.	.	.	.	.	8c#X\	-ri-	.	.	.	.	.	.	.	.	.	.	.	.
8d/J	.	.	.	8d\J	.	.	.	.	.	.	.	8d\	-a	.	.	.	.	.	.	.	.	.	.	.	.
4e/	2G\	.	.	4e\	.	.	.	.	.	2G\	a-	4e\	De-	.	.	.	.	.	.	.	.	.	.	.	.
4d/	.	.	.	4d\	.	.	.	.	.	.	.	4d\	-i	.	.	.	.	.	.	.	.	.	.	.	.
=10	=10	=10	=10	=10	=10	=10	=10	=10	=10	=10	=10	=10	=10	=10	=10	=10	=10	=10	=10	=10	=10	=10	=10	=10	=10
4c#X/	2.A\	.	.	4c#X/	.	.	.	.	.	2.A\	.	4c#X\	Pa-	.	.	.	.	.	.	.	.	.	.	.	.
4B/	.	.	.	4B/	.	.	.	.	.	.	.	4B\	.	.	.	.	.	.	.	.	.	.	.	.	.
4A/	.	.	.	4A/	.	.	.	.	.	.	.	4A\	.	.	.	.	.	.	.	.	.	.	.	.	.
8B/L	4G\	.	.	8B/L	.	.	.	.	.	4G\	.	8B\L	-tris	.	.	.	.	.	.	.	.	.	.	.	.
8c#/J	.	.	.	8c#/J	.	.	.	.	.	.	.	8c#\J	.	.	.	.	.	.	.	.	.	.	.	.	.
=11	=11	=11	=11	=11	=11	=11	=11	=11	=11	=11	=11	=11	=11	=11	=11	=11	=11	=11	=11	=11	=11	=11	=11	=11	=11
4d/	4F#\	.	.	4d\	.	.	.	.	.	4F#\	.	4d\	a-	.	.	.	.	.	.	.	.	.	.	.	.
4e/	4E\	.	.	4e\	.	.	.	.	.	4E\	.	4e\	.	.	.	.	.	.	.	.	.	.	.	.	.
4f#/	4D\	.	.	4f#\	.	.	.	.	.	4D\	.	4f#\	.	.	.	.	.	.	.	.	.	.	.	.	.
4e/	4A\	.	.	4e\	.	.	.	.	.	4A\	.	4e\	.	.	.	.	.	.	.	.	.	.	.	.	.
=12	=12	=12	=12	=12	=12	=12	=12	=12	=12	=12	=12	=12	=12	=12	=12	=12	=12	=12	=12	=12	=12	=12	=12	=12	=12
4d/	2.B\	.	.	4d\	.	.	.	.	.	2.B\	.	4d\	.	.	.	.	.	.	.	.	.	.	.	.	.
!LO:SIC:v:s=4c#/	!	!	!	!	!	!	!	!	!	!	!	!LO:SIC:v:s=4c#\	!	!	!	!	!	!	!	!	!	!	!	!	!
4c/	.	.	.	4c#X\	.	.	.	.	.	.	.	4c\	.	.	.	.	.	.	.	.	.	.	.	.	.
4B/	.	.	.	4B\	.	.	.	.	.	.	.	4B\	.	.	.	.	.	.	.	.	.	.	.	.	.
!LO:SIC:v:s=8c#/L	!	!	!	!	!	!	!	!	!	!	!	!LO:SIC:v:s=8c#\L	!	!	!	!	!	!	!	!	!	!	!	!	!
8c/L	4A\	.	.	8c#\L	.	.	.	.	.	4A\	.	8c\L	.	.	.	.	.	.	.	.	.	.	.	.	.
8d#X/J	.	.	.	8d#X\J	.	.	.	.	.	.	.	8d#X\J	.	.	.	.	.	.	.	.	.	.	.	.	.
!	!	!	!	!	!	!	!	!	!	!	!	!LO:LB:g=original	!	!	!	!	!	!	!	!	!	!	!	!	!
=13	=13	=13	=13	=13	=13	=13	=13	=13	=13	=13	=13	=13	=13	=13	=13	=13	=13	=13	=13	=13	=13	=13	=13	=13	=13
4e/	4G\	.	.	4e\	.	0r	.	00r	.	4G\	.	4e\	.	0r	.	00r	.	00r	.	00r	.	00r	.	00r	.
4f#/	4F#\	.	.	4f#\	.	.	.	.	.	4F#\	.	4f#\	.	.	.	.	.	.	.	.	.	.	.	.	.
4g/	4E\	.	.	4g\	.	.	.	.	.	4E\	.	4g\	.	.	.	.	.	.	.	.	.	.	.	.	.
4e/	4G\	.	.	4f#\	.	.	.	.	.	4G\	.	4e\	.	.	.	.	.	.	.	.	.	.	.	.	.
=14	=14	=14	=14	=14	=14	=14	=14	=14	=14	=14	=14	=14	=14	=14	=14	=14	=14	=14	=14	=14	=14	=14	=14	=14	=14
4c#X/	2.A\	.	.	4c#X/	.	.	.	.	.	2.A\	.	4c#X\	.	.	.	.	.	.	.	.	.	.	.	.	.
4B/	.	.	.	4B/	.	.	.	.	.	.	.	4B\	.	.	.	.	.	.	.	.	.	.	.	.	.
4A/	.	.	.	4A/	.	.	.	.	.	.	.	4A\	.	.	.	.	.	.	.	.	.	.	.	.	.
8B/L	4G\	.	.	8B/L	.	.	.	.	.	4G\	.	8B\L	.	.	.	.	.	.	.	.	.	.	.	.	.
8c#/J	.	.	.	8c#/J	.	.	.	.	.	.	.	8c#\J	.	.	.	.	.	.	.	.	.	.	.	.	.
!LO:LB:g=original	!	!	!	!	!	!	!	!	!	!	!	!	!	!	!	!	!	!	!	!	!	!	!	!	!
=15	=15	=15	=15	=15	=15	=15	=15	=15	=15	=15	=15	=15	=15	=15	=15	=15	=15	=15	=15	=15	=15	=15	=15	=15	=15
2.d/	4F#\	.	.	2.d\	.	1r	.	.	.	4F#\	.	2.d\	.	1r	.	.	.	.	.	.	.	.	.	.	.
.	4D\	.	.	.	.	.	.	.	.	4D\	.	.	.	.	.	.	.	.	.	.	.	.	.	.	.
.	4E\	.	.	.	.	.	.	.	.	4E\	.	.	.	.	.	.	.	.	.	.	.	.	.	.	.
4cn/	4F#\	.	.	4cn\	.	.	.	.	.	4F#\	.	4cn\	.	.	.	.	.	.	.	.	.	.	.	.	.
=16	=16	=16	=16	=16	=16	=16	=16	=16	=16	=16	=16	=16	=16	=16	=16	=16	=16	=16	=16	=16	=16	=16	=16	=16	=16
2B/	4G\	.	.	4B/	.	2r	.	.	.	2G\	-men	2B\	-men	2r	.	.	.	.	.	.	.	.	.	.	.
.	4F#\	.	.	4A/	.	.	.	.	.	.	.	.	.	.	.	.	.	.	.	.	.	.	.	.	.
*	*	*	*	*	*	*	*	*	*	*	*	*	*	*2\right	*	*	*	*	*	*	*	*	*	*	*
2r	4E\	3_	.	2G/	.	2g/	.	.	.	2r	.	2r	.	2g\	In	.	.	.	.	.	.	.	.	.	.
.	4D\	.	.	.	.	.	.	.	.	.	.	.	.	.	.	.	.	.	.	.	.	.	.	.	.
!	!	!	!	!LO:PB:g=original	!	!	!	!	!	!	!	!	!	!	!	!	!	!	!	!	!	!	!	!	!
*v	*v	*	*	*	*	*	*	*	*	*	*	*	*	*	*	*	*	*	*	*	*	*	*	*	*
=17	=17	=17	=17	=17	=17	=17	=17	=17	=17	=17	=17	=17	=17	=17	=17	=17	=17	=17	=17	=17	=17	=17	=17	=17
2C/	x	.	2r	.	4g/	.	00r	.	00r	.	2r	.	4g\	glo-	00r	.	00r	.	00r	.	00r	.	00r	.
.	.	.	.	.	8f#/L	.	.	.	.	.	.	.	8f#\	-ri-	.	.	.	.	.	.	.	.	.	.
.	.	.	.	.	8g/J	.	.	.	.	.	.	.	8g\	-a	.	.	.	.	.	.	.	.	.	.
*clefC4	*	*	*	*	*	*	*	*	*	*	*	*	*	*	*	*	*	*	*	*	*	*	*	*
2c\	6	.	2c\	.	4a/	.	.	.	.	.	2c\	a-	4a\	De-	.	.	.	.	.	.	.	.	.	.
.	5	.	.	.	4g/	.	.	.	.	.	.	.	4g\	-i	.	.	.	.	.	.	.	.	.	.
=18	=18	=18	=18	=18	=18	=18	=18	=18	=18	=18	=18	=18	=18	=18	=18	=18	=18	=18	=18	=18	=18	=18	=18	=18
2.d\	3	.	2.d\	.	4f#/	.	.	.	.	.	2.d\	.	4f#\	Pa-	.	.	.	.	.	.	.	.	.	.
.	2	.	.	.	4e/	.	.	.	.	.	.	.	4e\	.	.	.	.	.	.	.	.	.	.	.
.	1	.	.	.	4d/	.	.	.	.	.	.	.	4d\	.	.	.	.	.	.	.	.	.	.	.
4c\	4	.	4c\	.	8e/L	.	.	.	.	.	4c\	.	8e\L	-tris	.	.	.	.	.	.	.	.	.	.
.	.	.	.	.	8f#/J	.	.	.	.	.	.	.	8f#\J	.	.	.	.	.	.	.	.	.	.	.
=19	=19	=19	=19	=19	=19	=19	=19	=19	=19	=19	=19	=19	=19	=19	=19	=19	=19	=19	=19	=19	=19	=19	=19	=19
4B\	6	.	4B/	.	4g/	.	.	.	.	.	4B\	.	4g\	A-	.	.	.	.	.	.	.	.	.	.
4A\	6	.	4A/	.	4a/	.	.	.	.	.	4A\	.	4a\	.	.	.	.	.	.	.	.	.	.	.
4G\	.	.	4G/	.	4b/	.	.	.	.	.	4G\	.	4b\	.	.	.	.	.	.	.	.	.	.	.
4d\	5	.	4d\	.	4a/	.	.	.	.	.	4d\	.	4a\	.	.	.	.	.	.	.	.	.	.	.
=20	=20	=20	=20	=20	=20	=20	=20	=20	=20	=20	=20	=20	=20	=20	=20	=20	=20	=20	=20	=20	=20	=20	=20	=20
2.e\	3	.	2.e\	.	4g/	.	.	.	.	.	2.e\	.	4g\	.	.	.	.	.	.	.	.	.	.	.
.	.	.	.	.	4f#/	.	.	.	.	.	.	.	4f#\	.	.	.	.	.	.	.	.	.	.	.
.	.	.	.	.	4e/	.	.	.	.	.	.	.	4e\	.	.	.	.	.	.	.	.	.	.	.
4d\	3	.	4d\	.	8f#/L	.	.	.	.	.	4d\	.	8f#\L	.	.	.	.	.	.	.	.	.	.	.
.	4	.	.	.	8g#X/J	.	.	.	.	.	.	.	8g#X\J	.	.	.	.	.	.	.	.	.	.	.
.	1	.	.	.	.	.	.	.	.	.	.	.	.	.	.	.	.	.	.	.	.	.	.	.
!	!	!	!	!	!	!	!	!	!	!	!LO:LB:g=original	!	!LO:LB:g=original	!	!	!	!	!	!	!	!	!	!	!
=21	=21	=21	=21	=21	=21	=21	=21	=21	=21	=21	=21	=21	=21	=21	=21	=21	=21	=21	=21	=21	=21	=21	=21	=21
4c\	6	.	4c/	.	4a/	.	0r	.	00r	.	4c\	.	4a\	.	0r	.	00r	.	00r	.	00r	.	00r	.
4B\	6\	.	4B/	.	4b/	.	.	.	.	.	4B\	.	4b\	.	.	.	.	.	.	.	.	.	.	.
4A\	.	.	4A/	.	4cc/	.	.	.	.	.	4A\	.	4cc\	.	.	.	.	.	.	.	.	.	.	.
4c\	6	.	4c/	.	4a/	.	.	.	.	.	4c\	.	4a\	.	.	.	.	.	.	.	.	.	.	.
!	!	!	!	!	!LO:LB:g=original	!	!	!	!	!	!	!	!	!	!	!	!	!	!	!	!	!	!	!
=22	=22	=22	=22	=22	=22	=22	=22	=22	=22	=22	=22	=22	=22	=22	=22	=22	=22	=22	=22	=22	=22	=22	=22	=22
2.d\	#_	.	2.d\	.	4f#/	.	.	.	.	.	2.d\	.	4f#\	.	.	.	.	.	.	.	.	.	.	.
.	.	.	.	.	4e/	.	.	.	.	.	.	.	4e\	.	.	.	.	.	.	.	.	.	.	.
.	.	.	.	.	4d/	.	.	.	.	.	.	.	4d\	.	.	.	.	.	.	.	.	.	.	.
4c\	.	.	4c\	.	8e/L	.	.	.	.	.	4c\	.	8e\L	.	.	.	.	.	.	.	.	.	.	.
.	.	.	.	.	8f#/J	.	.	.	.	.	.	.	8f#\J	.	.	.	.	.	.	.	.	.	.	.
=23	=23	=23	=23	=23	=23	=23	=23	=23	=23	=23	=23	=23	=23	=23	=23	=23	=23	=23	=23	=23	=23	=23	=23	=23
4B\	6_	.	4B/	.	2g/	.	2r	.	.	.	4B\	.	2gn\	-men	2r	.	.	.	.	.	.	.	.	.
4A\	.	.	4A/	.	.	.	.	.	.	.	4A\	.	.	.	.	.	.	.	.	.	.	.	.	.
*	*	*	*	*	*	*	*2\right	*	*	*	*	*	*	*	*2\right	*	*	*	*	*	*	*	*	*
4G\	.	.	2G/	.	2r	.	2dd\	.	.	.	2G/	-men	2r	.	2dd\	In	.	.	.	.	.	.	.	.
4r	x	.	.	.	.	.	.	.	.	.	.	.	.	.	.	.	.	.	.	.	.	.	.	.
=24	=24	=24	=24	=24	=24	=24	=24	=24	=24	=24	=24	=24	=24	=24	=24	=24	=24	=24	=24	=24	=24	=24	=24	=24
2r	.	.	2r	.	2r	.	4dd\	.	.	.	2r	.	2r	.	4dd\	glo-	.	.	.	.	.	.	.	.
.	.	.	.	.	.	.	8cc#X\L	.	.	.	.	.	.	.	8cc#X\	-ri-	.	.	.	.	.	.	.	.
.	.	.	.	.	.	.	8dd\J	.	.	.	.	.	.	.	8dd\	-a	.	.	.	.	.	.	.	.
*	*	*	*	*	*2\right	*	*	*	*	*	*	*	*	*	*	*	*	*	*	*	*	*	*	*
2G/	-4	.	2G/	.	2b\	.	4ee\	.	.	.	2G/	In	2b\	in	4ee\	De-	.	.	.	.	.	.	.	.
.	.	.	.	.	.	.	4dd\	.	.	.	.	.	.	.	4dd\	-i	.	.	.	.	.	.	.	.
!LO:LB:g=original	!	!	!	!	!	!	!	!	!	!	!	!	!	!	!	!	!	!	!	!	!	!	!	!
=25	=25	=25	=25	=25	=25	=25	=25	=25	=25	=25	=25	=25	=25	=25	=25	=25	=25	=25	=25	=25	=25	=25	=25	=25
2.A\	#2	.	2.A/	.	2e/	.	4cc#X\	.	00r	.	2.A\	glo-	2e\	glo-	4cc#X\	Pa-	00r	.	00r	.	00r	.	00r	.
.	1	.	.	.	.	.	4b\	.	.	.	.	.	.	.	4b\	.	.	.	.	.	.	.	.	.
.	.	.	.	.	4c#X/	.	4a\	.	.	.	.	.	4c#X\	.	4a\	-tris	.	.	.	.	.	.	.	.
4G/	4	.	4G/	.	8d/L	.	8b\L	.	.	.	4G/	.	8d\L	.	8b\L	.	.	.	.	.	.	.	.	.
.	.	.	.	.	8e/J	.	8cc#\J	.	.	.	.	.	8e\J	.	8cc#\J	.	.	.	.	.	.	.	.	.
=26	=26	=26	=26	=26	=26	=26	=26	=26	=26	=26	=26	=26	=26	=26	=26	=26	=26	=26	=26	=26	=26	=26	=26	=26
4F#/	6	.	4F#/	.	4a/	.	4dd\	.	.	.	4F#/	.	4a\	.	4dd\	A-	.	.	.	.	.	.	.	.
4E/	6\	.	4E/	.	4g/	.	4ee\	.	.	.	4E/	.	4g\	-ri-	4ee\	.	.	.	.	.	.	.	.	.
4D/	.	.	4D/	.	4f#/	.	4ff#\	.	.	.	4D/	-ri-	2f#\	-a	4ff#\	.	.	.	.	.	.	.	.	.
4A/	5 #	.	4A/	.	4f#/	.	4ee\	.	.	.	4A\	-a	.	.	4ee\	.	.	.	.	.	.	.	.	.
!	!	!	!	!	!	!	!	!	!	!	!	!	!	!	!LO:LB:g=original	!	!	!	!	!	!	!	!	!
=27	=27	=27	=27	=27	=27	=27	=27	=27	=27	=27	=27	=27	=27	=27	=27	=27	=27	=27	=27	=27	=27	=27	=27	=27
2.B\	3	.	2.B/	.	2f#/	.	4dd\	.	.	.	2.B\	De-	2f#\	De-	4dd\	.	.	.	.	.	.	.	.	.
.	2	.	.	.	.	.	4cc#X\	.	.	.	.	.	.	.	4cc#X\	.	.	.	.	.	.	.	.	.
.	1	.	.	.	2b\	.	4b\	.	.	.	.	.	2b\	-i	4b\	.	.	.	.	.	.	.	.	.
4A\	4	.	4A/	.	.	.	8cc#\L	.	.	.	4A\	-i	.	.	8cc#\L	.	.	.	.	.	.	.	.	.
!	!	!	!	!	!	!	!	!	!	!	!	!	!	!	!LO:SIC:v:s=8dd#\J	!	!	!	!	!	!	!	!	!
.	1	.	.	.	.	.	8dd#X\J	.	.	.	.	.	.	.	8dd\J	.	.	.	.	.	.	.	.	.
!	!	!	!	!	!	!	!	!	!	!	!	!	!LO:LB:g=original	!	!	!	!	!	!	!	!	!	!	!
=28	=28	=28	=28	=28	=28	=28	=28	=28	=28	=28	=28	=28	=28	=28	=28	=28	=28	=28	=28	=28	=28	=28	=28	=28
4G/	6	.	4G/	.	4b\	.	4ee\	.	.	.	4G/	Pa-	4b\	Pa-	4ee\	.	.	.	.	.	.	.	.	.
4F#/	6\	.	4F#/	.	4a\	.	4ff#\	.	.	.	4F#/	.	4a\	.	4ff#\	.	.	.	.	.	.	.	.	.
4E/	3	.	4E/	.	4g/	.	4gg\	.	.	.	4E/	.	4g\	-tris	4gg\	.	.	.	.	.	.	.	.	.
!	!	!	!	!	!	!	!	!	!	!	!	!	!	!	!LO:SIC:v:s=4ff#\	!	!	!	!	!	!	!	!	!
4G/	6	.	4G/	.	4b\	.	4ff#\	.	.	.	4G/	-tris	4b\	.	4ee\	.	.	.	.	.	.	.	.	.
!	!	!	!	!	!	!	!	!	!	!	!LO:LB:g=original	!	!	!	!	!	!	!	!	!	!	!	!	!
=29	=29	=29	=29	=29	=29	=29	=29	=29	=29	=29	=29	=29	=29	=29	=29	=29	=29	=29	=29	=29	=29	=29	=29	=29
2.A\	#_	.	2.A/	.	1e	.	4cc#X\	.	0r	.	2.A\	A-	1e	a-	4cc#X\	.	0r	.	0r	.	0r	.	0r	.
.	.	.	.	.	.	.	4b\	.	.	.	.	.	.	.	4b\	.	.	.	.	.	.	.	.	.
.	.	.	.	.	.	.	4a\	.	.	.	.	.	.	.	4a\	.	.	.	.	.	.	.	.	.
4G/	.	.	4G/	.	.	.	8b\L	.	.	.	4G/	.	.	.	8b\L	.	.	.	.	.	.	.	.	.
.	.	.	.	.	.	.	8cc#\J	.	.	.	.	.	.	.	8cc#\J	.	.	.	.	.	.	.	.	.
!	!	!	!LO:LB:g=original	!	!	!	!LO:LB:g=original	!	!	!	!	!	!	!	!	!	!	!	!	!	!	!	!	!
=30	=30	=30	=30	=30	=30	=30	=30	=30	=30	=30	=30	=30	=30	=30	=30	=30	=30	=30	=30	=30	=30	=30	=30	=30
4F#/	6_	.	4F#/	.	4a/	.	2.dd\	.	.	.	4F#/	.	4a\	.	2.dd\	.	.	.	.	.	.	.	.	.
!	!	!	!LO:SIC:v:s=4D/	!	!	!	!	!	!	!	!	!	!	!	!	!	!	!	!	!	!	!	!	!
4D/	x 3_	.	4E/	.	4f#/	.	.	.	.	.	4D/	.	4f#\	.	.	.	.	.	.	.	.	.	.	.
!	!	!	!LO:SIC:v:s=4E/	!	!	!	!	!	!	!	!	!	!	!	!	!	!	!	!	!	!	!	!	!
4E/	.	.	4D/	.	4g/	.	.	.	.	.	4E/	.	4g\	.	.	.	.	.	.	.	.	.	.	.
4F#/	n5	.	8E/L	.	4a/	.	4ccn\	.	.	.	4F#/	.	4a\	.	4ccn\	.	.	.	.	.	.	.	.	.
.	.	.	8F#/J	.	.	.	.	.	.	.	.	.	.	.	.	.	.	.	.	.	.	.	.	.
=31	=31	=31	=31	=31	=31	=31	=31	=31	=31	=31	=31	=31	=31	=31	=31	=31	=31	=31	=31	=31	=31	=31	=31	=31
2G\	.	.	2G/	.	2d/	.	2b\	.	2r	.	2G/	-men	2g\	-men	2b\	-men	2r	.	2r	.	2r	.	2r	.
*clefF4	*	*	*	*	*	*	*	*	*	*	*	*	*	*	*	*	*2\right	*	*2\right	*	*2\right	*	*2\right	*
2G\	.	.	2g\	.	2d/	.	2b\	.	2G\	In	2B\	In	2g\	In	2b\	in	2g\	.	2a\	.	2dd\	.	2bb\	.
!	!	!	!	!	!	!	!	!	!LO:LB:g=original	!	!	!	!	!	!	!	!	!	!	!	!	!	!	!
=32	=32	=32	=32	=32	=32	=32	=32	=32	=32	=32	=32	=32	=32	=32	=32	=32	=32	=32	=32	=32	=32	=32	=32	=32
4G\	#4_ 2_	.	1a	.	1e	.	1cc#X	.	4G\	glo-	2A\	glo-	2e\	glo-	2cc#X\	glo-	1a	.	1a	.	1ee	.	1ccc#X	.
8F#\L	.	.	.	.	.	.	.	.	8F#\	-ri-	.	.	.	.	.	.	.	.	.	.	.	.	.	.
8G\J	.	.	.	.	.	.	.	.	8G\	-a	.	.	.	.	.	.	.	.	.	.	.	.	.	.
4A\	.	.	.	.	.	.	.	.	4A\	De-	4A\	-ri-	4e\	-ri-	4cc#\	-ri-	.	.	.	.	.	.	.	.
4G\	.	.	.	.	.	.	.	.	4G\	-i	4A\	-a	4e\	-a	4cc#\	-a	.	.	.	.	.	.	.	.
=33	=33	=33	=33	=33	=33	=33	=33	=33	=33	=33	=33	=33	=33	=33	=33	=33	=33	=33	=33	=33	=33	=33	=33	=33
4F#\	6_ 3	.	2a\	.	4a/	.	2.dd\	.	4F#\	Pa-	2A\	De-	4a\	De-	2.dd\	De-	1d	.	1a	.	4aa\	.	2.ddd\	.
4E\	x 3	.	.	.	4g/	.	.	.	4E\	.	.	.	4g\	.	.	.	.	.	.	.	4gg\	.	.	.
4D\	x 3_	.	2d\	.	4f#/	.	.	.	4D\	.	2d\	-i	4f#\	-i	.	.	.	.	.	.	4ff#\	.	.	.
8E\L	n _	.	.	.	8g/L	.	4ccn\	.	8E\L	-tris	.	.	8g\L	.	4ccn\	-i	.	.	.	.	8gg\L	.	4cccn\	.
!LO:TX:b:i:t=V&colon; S&colon;	!	!	!	!	!	!	!	!	!	!	!	!	!	!	!	!	!	!	!	!	!	!	!	!
8F#\J	6 _	.	.	.	8a/J	.	.	.	8F#\J	.	.	.	8a\J	.	.	.	.	.	.	.	8aa\J	.	.	.
!LO:PB:g=original	!	!	!	!	!	!	!	!	!	!	!	!	!	!	!	!	!	!	!	!	!	!	!	!
=34	=34	=34	=34	=34	=34	=34	=34	=34	=34	=34	=34	=34	=34	=34	=34	=34	=34	=34	=34	=34	=34	=34	=34	=34
!	!	!	!	!	!	!	!	!	!LO:SIC:v:s=4G#\	!	!	!	!	!	!	!	!	!	!	!	!	!	!	!
4G#X\	3	.	4g\	.	2d/	.	4b\	.	4G\	a-	2d\	Pa-	2d\	Pa-	(4b\	Pa-	2B/	.	2g\	.	2dd\	.	4bb\	.
4A\	3	.	4a\	.	.	.	4cc\	.	4A\	.	.	.	.	.	4cc\	.	.	.	.	.	.	.	4ccc\	.
4B\	3	.	4g\	.	2b\	.	4dd\	.	4B\	.	2B\	-tris	4g\	-tris	4dd\)	.	2r	.	2r	.	4gg\	.	4ddd\	.
4A\	#4 2	.	4f#\	.	.	.	4dd#X\	.	4A\	.	.	.	4f#\	.	4dd#X\	-tris	.	.	.	.	4ff#\	.	4ddd#X\	.
!	!	!	!	!	!	!	!	!	!	!	!	!	!	!	!LO:LB:g=original	!	!	!	!	!	!	!	!	!
=35	=35	=35	=35	=35	=35	=35	=35	=35	=35	=35	=35	=35	=35	=35	=35	=35	=35	=35	=35	=35	=35	=35	=35	=35
!LO:SIC:v:s=4G#\	!	!	!	!	!	!	!	!	!LO:SIC:v:s=4G#\	!	!	!	!	!	!	!	!	!	!	!	!	!	!	!
4G\	6_	.	4g\	.	4b\	.	2.ee\	.	4G\	.	1B	a-	2g\	a-	2.ee\	a-	0r	.	0r	.	4gg\	.	2.ccc\	.
4F#\	.	.	4f#\	.	4a/	.	.	.	4F#\	.	.	.	.	.	.	.	.	.	.	.	4aa\	.	.	.
4E\	#	.	2e\	.	4g#X/	.	.	.	4E\	.	.	.	2e\	-men	.	.	.	.	.	.	4gg#X\	.	.	.
8F#\L	6_	.	.	.	8a/L	.	4ddn\	.	8F#\L	.	.	.	.	.	4dd\	.	.	.	.	.	8aa\L	.	4bb\	.
!	!	!	!	!	!	!	!	!	!LO:SIC:v:s=8G#\J	!	!	!	!	!	!	!	!	!	!	!	!	!	!	!
8G#X\J	.	.	.	.	8b/J	.	.	.	8G\J	.	.	.	.	.	.	.	.	.	.	.	8bb\J	.	.	.
!	!	!	!	!	!LO:LB:g=original	!	!	!	!	!	!	!	!LO:LB:g=original	!	!	!	!	!	!	!	!	!	!	!
=36	=36	=36	=36	=36	=36	=36	=36	=36	=36	=36	=36	=36	=36	=36	=36	=36	=36	=36	=36	=36	=36	=36	=36	=36
*	*	*	*	*	*	*	*	*	*	*	*	*	*	*ij	*	*	*	*	*	*	*	*	*	*
4A\	3_	.	4a\	.	2e/	.	2cc\	.	4A\	.	2A\	-men	2e\	a-	2cc\	-men	.	.	.	.	2ee\	.	2ccc\	.
4B\	.	.	8g#X\L	.	.	.	.	.	4B\	.	.	.	.	.	.	.	.	.	.	.	.	.	.	.
.	.	.	8a\J	.	.	.	.	.	.	.	.	.	.	.	.	.	.	.	.	.	.	.	.	.
4c\	6	.	4cc\	.	2cc\	.	2aa\	.	4c\	.	2e\	a-	2a\	-men	2cc\	a-	.	.	.	.	2r	.	2r	.
*	*	*	*	*	*	*	*	*	*	*	*	*	*	*Xij	*	*	*	*	*	*	*	*	*	*
4A\	.	.	4a\	.	.	.	.	.	4A\	.	.	.	.	.	.	.	.	.	.	.	.	.	.	.
=37	=37	=37	=37	=37	=37	=37	=37	=37	=37	=37	=37	=37	=37	=37	=37	=37	=37	=37	=37	=37	=37	=37	=37	=37
1F#	6 5	.	1d	.	4cc\	.	1aa	.	1F#	.	1d	.	1a	a-	4cc\	.	1d	.	1a	.	1dd	.	1ccc	.
.	.	.	.	.	8b\L	.	.	.	.	.	.	.	.	.	8b\L	.	.	.	.	.	.	.	.	.
.	.	.	.	.	8cc\J	.	.	.	.	.	.	.	.	.	8cc\J	.	.	.	.	.	.	.	.	.
.	.	.	.	.	4dd\	.	.	.	.	.	.	.	.	.	4dd\	.	.	.	.	.	.	.	.	.
.	.	.	.	.	4cc\	.	.	.	.	.	.	.	.	.	4cc\	.	.	.	.	.	.	.	.	.
=38	=38	=38	=38	=38	=38	=38	=38	=38	=38	=38	=38	=38	=38	=38	=38	=38	=38	=38	=38	=38	=38	=38	=38	=38
4G\	9	.	1d	.	2b\	.	1aa	.	4G\	.	1d	.	1a	.	2b\	-men	1g	.	1b	.	1dd	.	1bb	.
8F#\L	.	.	.	.	.	.	.	.	8F#\L	.	.	.	.	.	.	.	.	.	.	.	.	.	.	.
8G\J	.	.	.	.	.	.	.	.	8G\J	.	.	.	.	.	.	.	.	.	.	.	.	.	.	.
4B\	.	.	.	.	2b\	.	.	.	4B\	.	.	.	.	.	2b\	A-	.	.	.	.	.	.	.	.
4G\	.	.	.	.	.	.	.	.	4G\	.	.	.	.	.	.	.	.	.	.	.	.	.	.	.
!	!	!	!	!	!	!	!	!	!LO:PB:g=original	!	!LO:LB:g=original	!	!	!	!	!	!	!	!	!	!	!	!	!
=39	=39	=39	=39	=39	=39	=39	=39	=39	=39	=39	=39	=39	=39	=39	=39	=39	=39	=39	=39	=39	=39	=39	=39	=39
1E	6 5	.	1c	.	4b\	.	1gg	.	1E	.	1c	.	1g	.	4b\	.	0r	.	0r	.	1b	.	1gg	.
.	.	.	.	.	8a\L	.	.	.	.	.	.	.	.	.	8a\L	.	.	.	.	.	.	.	.	.
.	.	.	.	.	8b\J	.	.	.	.	.	.	.	.	.	8b\J	.	.	.	.	.	.	.	.	.
.	.	.	.	.	4cc\	.	.	.	.	.	.	.	.	.	4cc\	.	.	.	.	.	.	.	.	.
.	.	.	.	.	4b\	.	.	.	.	.	.	.	.	.	4b\	.	.	.	.	.	.	.	.	.
=40	=40	=40	=40	=40	=40	=40	=40	=40	=40	=40	=40	=40	=40	=40	=40	=40	=40	=40	=40	=40	=40	=40	=40	=40
4F#\	9	.	1c	.	1a	.	1gg	.	4F#\	.	1c	.	1g	.	2a\	-men	.	.	.	.	1a	.	1gg	.
8E\L	.	.	.	.	.	.	.	.	8E\L	.	.	.	.	.	.	.	.	.	.	.	.	.	.	.
8F#\J	.	.	.	.	.	.	.	.	8F#\J	.	.	.	.	.	.	.	.	.	.	.	.	.	.	.
4A\	.	.	.	.	.	.	.	.	4A\	.	.	.	.	.	2a\	a-	.	.	.	.	.	.	.	.
4F#\	.	.	.	.	.	.	.	.	4F#\	.	.	.	.	.	.	.	.	.	.	.	.	.	.	.
!	!	!	!	!	!	!	!	!	!	!	!	!	!	!	!	!	!	!	!	!	!LO:LB:g=original	!	!LO:LB:g=original	!
=41	=41	=41	=41	=41	=41	=41	=41	=41	=41	=41	=41	=41	=41	=41	=41	=41	=41	=41	=41	=41	=41	=41	=41	=41
1D#X	6 5	.	1B	.	4a/	.	1ff#	.	1D#X	.	1B	.	1f#	.	4a\	.	2r	.	2r	.	1a	.	1ff#	.
.	.	.	.	.	8g/L	.	.	.	.	.	.	.	.	.	8g\L	.	.	.	.	.	.	.	.	.
.	.	.	.	.	8a/J	.	.	.	.	.	.	.	.	.	8a\J	.	.	.	.	.	.	.	.	.
.	.	.	.	.	4b/	.	.	.	.	.	.	.	.	.	4b\	.	2B/	.	2b\	.	.	.	.	.
.	.	.	.	.	4a/	.	.	.	.	.	.	.	.	.	4a\	.	.	.	.	.	.	.	.	.
=42	=42	=42	=42	=42	=42	=42	=42	=42	=42	=42	=42	=42	=42	=42	=42	=42	=42	=42	=42	=42	=42	=42	=42	=42
!	!	!	!LO:N:vis=2.	!	!	!	!	!	!	!	!	!	!	!	!	!	!	!	!	!	!	!	!	!
2E\	.	.	2B/	.	2g/	.	2ee\	.	2E\	men	2B\	-men	2g\	-men	2g\	-men	2B/	.	2b\	.	2g/	.	2ee\	.
4c\	3	.	4c/	.	2g/	.	2ee\	.	4c\	In	2e\	In	2g\	In	2ee\	In	2r	.	2r	.	2r	.	2r	.
4B\	.	.	4B/	.	.	.	.	.	4B\	.	.	.	.	.	.	.	.	.	.	.	.	.	.	.
!	!	!	!	!	!	!	!	!	!	!	!	!	!	!	!LO:LB:g=original	!	!	!	!	!	!	!	!	!
=43	=43	=43	=43	=43	=43	=43	=43	=43	=43	=43	=43	=43	=43	=43	=43	=43	=43	=43	=43	=43	=43	=43	=43	=43
2.A\	5	.	1A	.	1cc	.	4ee\	.	2.A\	glo-	2.e\	glo-	2.cc\	glo-	4ee\	glo-	00r	.	00r	.	00r	.	00r	.
.	.	.	.	.	.	.	8dd#X\L	.	.	.	.	.	.	.	8dd#X\L	-ri-	.	.	.	.	.	.	.	.
.	.	.	.	.	.	.	8ee\J	.	.	.	.	.	.	.	8ee\J	-a	.	.	.	.	.	.	.	.
.	6	.	.	.	.	.	4ff#\	.	.	.	.	.	.	.	4ff#\	De-	.	.	.	.	.	.	.	.
4A\	5	.	.	.	.	.	4ee\	.	4A\	-ri-	4A\	-ri-	4cc\	-ri-	4ee\	-i	.	.	.	.	.	.	.	.
=44	=44	=44	=44	=44	=44	=44	=44	=44	=44	=44	=44	=44	=44	=44	=44	=44	=44	=44	=44	=44	=44	=44	=44	=44
2.B\	#_	.	2A/	.	4f#/	.	4dd#X\	.	2B\	-a	1B	-a	1f#	-a	4dd#X\	Pa-	.	.	.	.	.	.	.	.
!	!	!	!	!	!	!	!	!	!	!	!	!	!	!	!LO:SIC:v:s=4cc#\	!	!	!	!	!	!	!	!	!
.	.	.	.	.	4e/	.	4cc#X\	.	.	.	.	.	.	.	4cc\	.	.	.	.	.	.	.	.	.
.	.	.	4b\	.	4d#X/	.	4b\	.	4B\	De-	.	.	.	.	4b\	-tris	.	.	.	.	.	.	.	.
!	!	!	!	!	!	!	!	!	!	!	!	!	!	!	!LO:SIC:v:s=8cc#\L	!	!	!	!	!	!	!	!	!
4A\	.	.	4a\	.	8e/L	.	8cc#\L	.	4A\	-i	.	.	.	.	8cc\L	.	.	.	.	.	.	.	.	.
.	.	.	.	.	8f#/J	.	8dd#X\J	.	.	.	.	.	.	.	8dd#\J	.	.	.	.	.	.	.	.	.
!LO:LB:g=original	!	!	!	!	!	!	!	!	!	!	!	!	!	!	!	!	!	!	!	!	!	!	!	!
=45	=45	=45	=45	=45	=45	=45	=45	=45	=45	=45	=45	=45	=45	=45	=45	=45	=45	=45	=45	=45	=45	=45	=45	=45
4G\	6	.	4g\	.	4b\	.	4ee\	.	4G\	Pa-	2B\	De-	4b\	De-	4ee\	A-	.	.	.	.	.	.	.	.
4F#\	6\	.	4f#\	.	4a\	.	4ff#\	.	4F#\	.	.	.	4a\	.	4ff#\	.	.	.	.	.	.	.	.	.
4E\	.	.	4e\	.	4g/	.	4gg\	.	4E\	tris	2B\	-i	4g\	-i	4gg\	.	.	.	.	.	.	.	.	.
4B\	7	.	4B/	.	4a/	.	4ff#\	.	4B\	.	.	.	4a\	.	4ff#\	.	.	.	.	.	.	.	.	.
!	!	!	!LO:LB:g=original	!	!	!	!	!	!	!	!	!	!	!	!	!	!	!	!	!	!	!	!	!
=46	=46	=46	=46	=46	=46	=46	=46	=46	=46	=46	=46	=46	=46	=46	=46	=46	=46	=46	=46	=46	=46	=46	=46	=46
2.c\	5	.	2.c/	.	1g	.	4ee\	.	2.c\	a-	1c	Pa-	1g	Pa-	4ee\	.	.	.	.	.	.	.	.	.
.	.	.	.	.	.	.	4ddn\	.	.	.	.	.	.	.	4dd\	.	.	.	.	.	.	.	.	.
.	.	.	.	.	.	.	4ccn\	.	.	.	.	.	.	.	4cc\	.	.	.	.	.	.	.	.	.
4B\	.	.	4B/	.	.	.	8dd\L	.	4B\	.	.	.	.	.	8dd\L	.	.	.	.	.	.	.	.	.
.	.	.	.	.	.	.	8ee\J	.	.	.	.	.	.	.	8ee\J	.	.	.	.	.	.	.	.	.
!	!	!	!	!	!	!	!LO:LB:g=original	!	!	!	!	!	!LO:LB:g=original	!	!	!	!	!	!	!	!	!	!	!
=47	=47	=47	=47	=47	=47	=47	=47	=47	=47	=47	=47	=47	=47	=47	=47	=47	=47	=47	=47	=47	=47	=47	=47	=47
4A\	6_	.	4A/	.	4cc\	.	4ff#\	.	4A\	.	2c\	.	4cc\	.	4ff#\	.	0r	.	0r	.	00r	.	00r	.
4G\	x 8	.	4G/	.	4b\	.	4gg\	.	4G\	.	.	.	4b\	.	4gg\	.	.	.	.	.	.	.	.	.
4F#\	3	.	4F#/	.	4a\	.	4aa\	.	4F#\	.	2c\	-tris	4a\	.	4aa\	.	.	.	.	.	.	.	.	.
4A\	6	.	4A/	.	4cc\	.	4ff#\	.	4A\	.	.	.	4cc\	.	4ff#\	.	.	.	.	.	.	.	.	.
!	!	!	!	!	!	!	!	!	!LO:LB:g=original	!	!	!	!	!	!	!	!	!	!	!	!	!	!	!
=48	=48	=48	=48	=48	=48	=48	=48	=48	=48	=48	=48	=48	=48	=48	=48	=48	=48	=48	=48	=48	=48	=48	=48	=48
2.B\	#_	.	2B/	.	4f#/	.	4dd#X\	.	2.B\	.	2B\	a-	2f#\	-tris	4dd#X\	.	.	.	.	.	.	.	.	.
!	!	!	!	!	!	!	!LO:SIC:v:s=4cc#\	!	!	!	!	!	!	!	!LO:SIC:v:s=4cc#\	!	!	!	!	!	!	!	!	!
.	.	.	.	.	4e/	.	4cc\	.	.	.	.	.	.	.	4cc\	.	.	.	.	.	.	.	.	.
.	.	.	4b\	.	4d#X/	.	4b\	.	.	.	2B\	-men	2f#\	a-	4b\	.	.	.	.	.	.	.	.	.
4A\	.	.	4a\	.	8e/L	.	8cc\L	.	4A\	.	.	.	.	.	8cc\L	.	.	.	.	.	.	.	.	.
.	.	.	.	.	8f#/J	.	8dd#\J	.	.	.	.	.	.	.	8dd#\J	.	.	.	.	.	.	.	.	.
!	!	!	!	!	!	!	!	!	!	!	!	!	!	!	!LO:LB:g=original	!	!	!	!	!	!	!	!	!
=49	=49	=49	=49	=49	=49	=49	=49	=49	=49	=49	=49	=49	=49	=49	=49	=49	=49	=49	=49	=49	=49	=49	=49	=49
4G\	6	.	4g\	.	4b\	.	4ee\	.	4G\	.	1B	a-	4b\	.	4ee\	.	1r	.	1r	.	.	.	.	.
4F#\	6\	.	4f#\	.	4a\	.	4ff#\	.	4F#\	.	.	.	4a\	.	4ff#\	.	.	.	.	.	.	.	.	.
4E\	.	.	4e\	.	4g/	.	4gg\	.	4E\	.	.	.	4g\	.	4gg\	.	.	.	.	.	.	.	.	.
4G\	6	.	4g\	.	4b/	.	4ee\	.	4G\	.	.	.	4b\	.	4ee\	.	.	.	.	.	.	.	.	.
!	!	!	!	!	!LO:LB:g=original	!	!	!	!	!	!	!	!	!	!	!	!	!	!	!	!	!	!	!
=50	=50	=50	=50	=50	=50	=50	=50	=50	=50	=50	=50	=50	=50	=50	=50	=50	=50	=50	=50	=50	=50	=50	=50	=50
2.A\	#	.	2.a\	.	4e/	.	4cc#X\	.	2.A\	.	1A	.	1e	.	4cc#X\	.	1a	.	1a	.	.	.	.	.
.	.	.	.	.	4d/	.	4b\	.	.	.	.	.	.	.	4b\	.	.	.	.	.	.	.	.	.
.	.	.	.	.	4c#X/	.	4a\	.	.	.	.	.	.	.	4a\	.	.	.	.	.	.	.	.	.
4G\	.	.	4g\	.	8d/L	.	8b\L	.	4G\	.	.	.	.	.	8b\L	.	.	.	.	.	.	.	.	.
.	.	.	.	.	8e/J	.	8cc#\J	.	.	.	.	.	.	.	8cc#\J	.	.	.	.	.	.	.	.	.
!	!	!	!	!	!	!	!	!	!	!	!	!	!	!	!	!	!LO:LB:g=original	!	!	!	!	!	!	!
=51	=51	=51	=51	=51	=51	=51	=51	=51	=51	=51	=51	=51	=51	=51	=51	=51	=51	=51	=51	=51	=51	=51	=51	=51
4F#\	6_	.	4f#\	.	4a/	.	1dd	.	4F#\	.	2A\	.	4a\	.	1ddn	.	2d/	.	2a\	.	2r	.	2r	.
4E\	.	.	4e\	.	4g/	.	.	.	4E\	.	.	.	4g\	.	.	.	.	.	.	.	.	.	.	.
4D\	.	.	4d\	.	4f#/	.	.	.	4D\	.	2A\	-men	4f#\	.	.	.	2d/	.	2a\	.	2ff#\	.	2ddd\	.
8E\L	x	.	8e\L	.	8g/L	.	.	.	8E\L	.	.	.	8g\L	.	.	.	.	.	.	.	.	.	.	.
8F#\J	.	.	8f#\J	.	8a/J	.	.	.	8F#\J	.	.	.	8a\J	.	.	.	.	.	.	.	.	.	.	.
!	!	!	!	!	!	!	!	!	!	!	!LO:LB:g=original	!	!	!	!	!	!	!	!LO:LB:g=original	!	!	!	!	!
=52	=52	=52	=52	=52	=52	=52	=52	=52	=52	=52	=52	=52	=52	=52	=52	=52	=52	=52	=52	=52	=52	=52	=52	=52
4G\	6 3	.	4g\	.	1e	.	2dd\	.	4G\	.	2B\	a-	1e	.	2dd\	.	2g\	.	2b\	.	1ee	.	2ddd\	.
4E\	.	.	4e\	.	.	.	.	.	4E\	.	.	.	.	.	.	.	.	.	.	.	.	.	.	.
4A\	#	.	4a\	.	.	.	2cc#X\	.	4A\	.	2A\	.	.	.	2cc#X\	.	2a\	.	2a\	.	.	.	2ccc#X\	.
4AA/	.	.	4A/	.	.	.	.	.	4AA/	.	.	.	.	.	.	.	.	.	.	.	.	.	.	.
=53	=53	=53	=53	=53	=53	=53	=53	=53	=53	=53	=53	=53	=53	=53	=53	=53	=53	=53	=53	=53	=53	=53	=53	=53
2D\	.	.	2d\	.	2f#/	.	2dd\	.	2D\	-men	2A\	-men	2f#\	-men	2dd\	-men	2d/	.	2a\	.	2ff#\	.	2ddd\	.
!	!	!	!	!	!	!	!	!LO:DY:a	!	!	!	!	!	!	!	!	!	!	!	!	!	!	!	!
2r	.	.	2r	.	2r	.	2dd\	p	2r	.	2r	.	2r	.	2r	.	2r	.	2r	.	2r	.	2r	.
=54	=54	=54	=54	=54	=54	=54	=54	=54	=54	=54	=54	=54	=54	=54	=54	=54	=54	=54	=54	=54	=54	=54	=54	=54
00r	.	.	00r	.	2r	.	4dd\	.	00r	.	00r	.	00r	.	00r	.	00r	.	00r	.	00r	.	00r	.
.	.	.	.	.	.	.	8cc#X\L	.	.	.	.	.	.	.	.	.	.	.	.	.	.	.	.	.
.	.	.	.	.	.	.	8dd\J	.	.	.	.	.	.	.	.	.	.	.	.	.	.	.	.	.
!	!	!	!	!	!	!LO:DY:a:rj	!	!	!	!	!	!	!	!	!	!	!	!	!	!	!	!	!	!
.	.	.	.	.	2g/	p	4ee\	.	.	.	.	.	.	.	.	.	.	.	.	.	.	.	.	.
.	.	.	.	.	.	.	4dd\	.	.	.	.	.	.	.	.	.	.	.	.	.	.	.	.	.
=55	=55	=55	=55	=55	=55	=55	=55	=55	=55	=55	=55	=55	=55	=55	=55	=55	=55	=55	=55	=55	=55	=55	=55	=55
.	.	.	.	.	2.a/	.	4cc#X\	.	.	.	.	.	.	.	.	.	.	.	.	.	.	.	.	.
.	.	.	.	.	.	.	4b\	.	.	.	.	.	.	.	.	.	.	.	.	.	.	.	.	.
.	.	.	.	.	.	.	4a\	.	.	.	.	.	.	.	.	.	.	.	.	.	.	.	.	.
.	.	.	.	.	4g/	.	8b\L	.	.	.	.	.	.	.	.	.	.	.	.	.	.	.	.	.
.	.	.	.	.	.	.	8cc#\J	.	.	.	.	.	.	.	.	.	.	.	.	.	.	.	.	.
=56	=56	=56	=56	=56	=56	=56	=56	=56	=56	=56	=56	=56	=56	=56	=56	=56	=56	=56	=56	=56	=56	=56	=56	=56
.	.	.	.	.	4f#/	.	4dd\	.	.	.	.	.	.	.	.	.	.	.	.	.	.	.	.	.
.	.	.	.	.	4e/	.	4ee\	.	.	.	.	.	.	.	.	.	.	.	.	.	.	.	.	.
.	.	.	.	.	4d/	.	4ff#\	.	.	.	.	.	.	.	.	.	.	.	.	.	.	.	.	.
.	.	.	.	.	4a/	.	4ee\	.	.	.	.	.	.	.	.	.	.	.	.	.	.	.	.	.
=57	=57	=57	=57	=57	=57	=57	=57	=57	=57	=57	=57	=57	=57	=57	=57	=57	=57	=57	=57	=57	=57	=57	=57	=57
.	.	.	.	.	2.b\	.	4dd\	.	.	.	.	.	.	.	.	.	.	.	.	.	.	.	.	.
!	!	!	!	!	!	!	!LO:SIC:v:s=4cc#\	!	!	!	!	!	!	!	!	!	!	!	!	!	!	!	!	!
.	.	.	.	.	.	.	4cc\	.	.	.	.	.	.	.	.	.	.	.	.	.	.	.	.	.
.	.	.	.	.	.	.	4b\	.	.	.	.	.	.	.	.	.	.	.	.	.	.	.	.	.
!	!	!	!	!	!	!	!LO:SIC:v:s=8cc#\L	!	!	!	!	!	!	!	!	!	!	!	!	!	!	!	!	!
.	.	.	.	.	4a\	.	8cc\L	.	.	.	.	.	.	.	.	.	.	.	.	.	.	.	.	.
.	.	.	.	.	.	.	8dd\J	.	.	.	.	.	.	.	.	.	.	.	.	.	.	.	.	.
=58	=58	=58	=58	=58	=58	=58	=58	=58	=58	=58	=58	=58	=58	=58	=58	=58	=58	=58	=58	=58	=58	=58	=58	=58
00r	.	.	00r	.	4g/	.	4ee\	.	00r	.	00r	.	00r	.	00r	.	00r	.	00r	.	00r	.	00r	.
.	.	.	.	.	4f#/	.	4ff#\	.	.	.	.	.	.	.	.	.	.	.	.	.	.	.	.	.
.	.	.	.	.	4e/	.	4gg\	.	.	.	.	.	.	.	.	.	.	.	.	.	.	.	.	.
.	.	.	.	.	4b/	.	4ff#\	.	.	.	.	.	.	.	.	.	.	.	.	.	.	.	.	.
=59	=59	=59	=59	=59	=59	=59	=59	=59	=59	=59	=59	=59	=59	=59	=59	=59	=59	=59	=59	=59	=59	=59	=59	=59
.	.	.	.	.	4cc#X\	.	4ee\	.	.	.	.	.	.	.	.	.	.	.	.	.	.	.	.	.
.	.	.	.	.	4b\	.	4dd\	.	.	.	.	.	.	.	.	.	.	.	.	.	.	.	.	.
.	.	.	.	.	4a\	.	4cc#X\	.	.	.	.	.	.	.	.	.	.	.	.	.	.	.	.	.
.	.	.	.	.	4g\	.	8dd\L	.	.	.	.	.	.	.	.	.	.	.	.	.	.	.	.	.
.	.	.	.	.	.	.	8ee\J	.	.	.	.	.	.	.	.	.	.	.	.	.	.	.	.	.
!	!	!	!	!	!	!	!LO:LB:g=original	!	!	!	!	!	!	!	!	!	!	!	!	!	!	!	!	!
=60	=60	=60	=60	=60	=60	=60	=60	=60	=60	=60	=60	=60	=60	=60	=60	=60	=60	=60	=60	=60	=60	=60	=60	=60
.	.	.	.	.	4f#/	.	4ff#\	.	.	.	.	.	.	.	.	.	.	.	.	.	.	.	.	.
.	.	.	.	.	4e/	.	4gg\	.	.	.	.	.	.	.	.	.	.	.	.	.	.	.	.	.
.	.	.	.	.	4f#/	.	4aa\	.	.	.	.	.	.	.	.	.	.	.	.	.	.	.	.	.
.	.	.	.	.	4g/	.	4gg\	.	.	.	.	.	.	.	.	.	.	.	.	.	.	.	.	.
=61	=61	=61	=61	=61	=61	=61	=61	=61	=61	=61	=61	=61	=61	=61	=61	=61	=61	=61	=61	=61	=61	=61	=61	=61
.	.	.	.	.	2a/	.	4ff#\	.	.	.	.	.	.	.	.	.	.	.	.	.	.	.	.	.
.	.	.	.	.	.	.	4ee\	.	.	.	.	.	.	.	.	.	.	.	.	.	.	.	.	.
.	.	.	.	.	4b/	.	2dd#X\	.	.	.	.	.	.	.	.	.	.	.	.	.	.	.	.	.
.	.	.	.	.	4a/	.	.	.	.	.	.	.	.	.	.	.	.	.	.	.	.	.	.	.
=62	=62	=62	=62	=62	=62	=62	=62	=62	=62	=62	=62	=62	=62	=62	=62	=62	=62	=62	=62	=62	=62	=62	=62	=62
00r	.	.	00r	.	4g/	.	4ee\	.	00r	.	00r	.	00r	.	00r	.	00r	.	00r	.	00r	.	00r	.
.	.	.	.	.	4f#/	.	4ff#\	.	.	.	.	.	.	.	.	.	.	.	.	.	.	.	.	.
.	.	.	.	.	4e/	.	4gg\	.	.	.	.	.	.	.	.	.	.	.	.	.	.	.	.	.
.	.	.	.	.	4f#/	.	4ff#\	.	.	.	.	.	.	.	.	.	.	.	.	.	.	.	.	.
=63	=63	=63	=63	=63	=63	=63	=63	=63	=63	=63	=63	=63	=63	=63	=63	=63	=63	=63	=63	=63	=63	=63	=63	=63
.	.	.	.	.	2g/	.	4ee\	.	.	.	.	.	.	.	.	.	.	.	.	.	.	.	.	.
.	.	.	.	.	.	.	4ddn\	.	.	.	.	.	.	.	.	.	.	.	.	.	.	.	.	.
.	.	.	.	.	4a/	.	2cc#X\	.	.	.	.	.	.	.	.	.	.	.	.	.	.	.	.	.
.	.	.	.	.	4g/	.	.	.	.	.	.	.	.	.	.	.	.	.	.	.	.	.	.	.
!	!	!	!	!	!LO:LB:g=original	!	!	!	!	!	!	!	!	!	!	!	!	!	!	!	!	!	!	!
=64	=64	=64	=64	=64	=64	=64	=64	=64	=64	=64	=64	=64	=64	=64	=64	=64	=64	=64	=64	=64	=64	=64	=64	=64
.	.	.	.	.	4f#/	.	4dd\	.	.	.	.	.	.	.	.	.	.	.	.	.	.	.	.	.
.	.	.	.	.	4e/	.	4ee\	.	.	.	.	.	.	.	.	.	.	.	.	.	.	.	.	.
.	.	.	.	.	4d/	.	4ff#\	.	.	.	.	.	.	.	.	.	.	.	.	.	.	.	.	.
.	.	.	.	.	4e/	.	4ee\	.	.	.	.	.	.	.	.	.	.	.	.	.	.	.	.	.
=65	=65	=65	=65	=65	=65	=65	=65	=65	=65	=65	=65	=65	=65	=65	=65	=65	=65	=65	=65	=65	=65	=65	=65	=65
.	.	.	.	.	2f#/	.	4dd\	.	.	.	.	.	.	.	.	.	.	.	.	.	.	.	.	.
.	.	.	.	.	.	.	4cc#X\	.	.	.	.	.	.	.	.	.	.	.	.	.	.	.	.	.
.	.	.	.	.	4g/	.	2b\	.	.	.	.	.	.	.	.	.	.	.	.	.	.	.	.	.
.	.	.	.	.	4f#/	.	.	.	.	.	.	.	.	.	.	.	.	.	.	.	.	.	.	.
=66	=66	=66	=66	=66	=66	=66	=66	=66	=66	=66	=66	=66	=66	=66	=66	=66	=66	=66	=66	=66	=66	=66	=66	=66
!	!	!	!	!	!	!	!LO:SIC:v:s=4cc#\	!	!	!	!	!	!	!	!	!	!	!	!	!	!	!	!	!
0r	.	.	1r	.	4e/	.	4cc\	.	00r	.	00r	.	00r	.	00r	.	0r	.	0r	.	0r	.	0r	.
.	.	.	.	.	4d/	.	4dd\	.	.	.	.	.	.	.	.	.	.	.	.	.	.	.	.	.
.	.	.	.	.	4c/	.	4ee\	.	.	.	.	.	.	.	.	.	.	.	.	.	.	.	.	.
.	.	.	.	.	4B/	.	4dd\	.	.	.	.	.	.	.	.	.	.	.	.	.	.	.	.	.
=67	=67	=67	=67	=67	=67	=67	=67	=67	=67	=67	=67	=67	=67	=67	=67	=67	=67	=67	=67	=67	=67	=67	=67	=67
!	!	!	!	!LO:DY:a:t=p.	!	!	!	!	!	!	!	!	!	!	!	!	!	!	!	!	!	!	!	!
.	.	.	1A	p	4A/	.	4cc#X\	.	.	.	.	.	.	.	.	.	.	.	.	.	.	.	.	.
.	.	.	.	.	2e/	.	2cc#\	.	.	.	.	.	.	.	.	.	.	.	.	.	.	.	.	.
.	.	.	.	.	4e/	.	4cc#\	.	.	.	.	.	.	.	.	.	.	.	.	.	.	.	.	.
=68	=68	=68	=68	=68	=68	=68	=68	=68	=68	=68	=68	=68	=68	=68	=68	=68	=68	=68	=68	=68	=68	=68	=68	=68
1r	.	.	1B	.	4g#X/	.	4dd\	.	.	.	.	.	.	.	.	.	1r	.	1r	.	1r	.	1r	.
.	.	.	.	.	2g#/	.	2dd\	.	.	.	.	.	.	.	.	.	.	.	.	.	.	.	.	.
.	.	.	.	.	4g#/	.	4dd\	.	.	.	.	.	.	.	.	.	.	.	.	.	.	.	.	.
=69	=69	=69	=69	=69	=69	=69	=69	=69	=69	=69	=69	=69	=69	=69	=69	=69	=69	=69	=69	=69	=69	=69	=69	=69
!LO:TX:b:i:t=Violone et pedale	!	!LO:DY:a:t=pp&colon;	!	!	!	!	!	!	!	!	!	!	!	!	!	!	!	!LO:DY:a:rj	!	!	!	!LO:DY:a:rj:t=p.	!	!LO:DY:a:rj
1A	.	pp	1A	.	4a/	.	4cc#X\	.	.	.	.	.	.	.	.	.	1a	p	1a	.	1a	p	1aa	p
.	.	.	.	.	2A/	.	4a/	.	.	.	.	.	.	.	.	.	.	.	.	.	.	.	.	.
.	.	.	.	.	.	.	(4g#X/	.	.	.	.	.	.	.	.	.	.	.	.	.	.	.	.	.
.	.	.	.	.	[4A/	.	4a/)	.	.	.	.	.	.	.	.	.	.	.	.	.	.	.	.	.
=70	=70	=70	=70	=70	=70	=70	=70	=70	=70	=70	=70	=70	=70	=70	=70	=70	=70	=70	=70	=70	=70	=70	=70	=70
1G	.	.	1G	.	4A/]	.	(4cc#X\	.	00r	.	00r	.	00r	.	00r	.	1a	.	1a	.	1a	.	1aa	.
.	.	.	.	.	2A/	.	4a\)	.	.	.	.	.	.	.	.	.	.	.	.	.	.	.	.	.
.	.	.	.	.	.	.	(4cc#\	.	.	.	.	.	.	.	.	.	.	.	.	.	.	.	.	.
.	.	.	.	.	[4A/	.	4ee\)	.	.	.	.	.	.	.	.	.	.	.	.	.	.	.	.	.
!LO:LB:g=original	!	!	!	!	!	!	!	!	!	!	!	!	!	!	!	!	!	!	!	!	!	!	!	!
=71	=71	=71	=71	=71	=71	=71	=71	=71	=71	=71	=71	=71	=71	=71	=71	=71	=71	=71	=71	=71	=71	=71	=71	=71
1F#	.	.	1F#	.	4A/]	.	4r	.	.	.	.	.	.	.	.	.	1a	.	1a	.	1a	.	1aa	.
.	.	.	.	.	2A/	.	4dd\|	.	.	.	.	.	.	.	.	.	.	.	.	.	.	.	.	.
.	.	.	.	.	.	.	(4cc#X\	.	.	.	.	.	.	.	.	.	.	.	.	.	.	.	.	.
.	.	.	.	.	[4A/	.	4dd\)	.	.	.	.	.	.	.	.	.	.	.	.	.	.	.	.	.
=72	=72	=72	=72	=72	=72	=72	=72	=72	=72	=72	=72	=72	=72	=72	=72	=72	=72	=72	=72	=72	=72	=72	=72	=72
1C#X	.	.	1c#X	.	4A/]	.	(4dd#X\	.	.	.	.	.	.	.	.	.	1a	.	1a	.	1a	.	1aa	.
.	.	.	.	.	2A/	.	4ee\)	.	.	.	.	.	.	.	.	.	.	.	.	.	.	.	.	.
.	.	.	.	.	.	.	4a/|>	.	.	.	.	.	.	.	.	.	.	.	.	.	.	.	.	.
.	.	.	.	.	[4A/	.	4ee\|	.	.	.	.	.	.	.	.	.	.	.	.	.	.	.	.	.
!	!	!	!	!	!	!	!LO:LB:g=original	!	!	!	!	!	!	!	!	!	!	!	!	!	!	!	!	!
=73	=73	=73	=73	=73	=73	=73	=73	=73	=73	=73	=73	=73	=73	=73	=73	=73	=73	=73	=73	=73	=73	=73	=73	=73
1D	.	.	1d	.	4A/]	.	4gg\	.	.	.	.	.	.	.	.	.	1a	.	1a	.	1a	.	1aa	.
.	.	.	.	.	2A/	.	4ff#\	.	.	.	.	.	.	.	.	.	.	.	.	.	.	.	.	.
.	.	.	.	.	.	.	4ee\	.	.	.	.	.	.	.	.	.	.	.	.	.	.	.	.	.
.	.	.	.	.	[4A/	.	4ddn\	.	.	.	.	.	.	.	.	.	.	.	.	.	.	.	.	.
=74	=74	=74	=74	=74	=74	=74	=74	=74	=74	=74	=74	=74	=74	=74	=74	=74	=74	=74	=74	=74	=74	=74	=74	=74
!LO:SIC:v:s=1C#	!	!	!LO:SIC:v:s=1c#	!	!	!	!	!	!	!	!	!	!	!	!	!	!	!	!	!	!	!	!	!
1C	.	.	1c	.	4A/]	.	(4dd#X\	.	00r	.	00r	.	00r	.	00r	.	1a	.	1a	.	1a	.	1aa	.
.	.	.	.	.	2A/	.	4ee\)	.	.	.	.	.	.	.	.	.	.	.	.	.	.	.	.	.
.	.	.	.	.	.	.	4a'>/	.	.	.	.	.	.	.	.	.	.	.	.	.	.	.	.	.
.	.	.	.	.	[4A/	.	4ee'\	.	.	.	.	.	.	.	.	.	.	.	.	.	.	.	.	.
=75	=75	=75	=75	=75	=75	=75	=75	=75	=75	=75	=75	=75	=75	=75	=75	=75	=75	=75	=75	=75	=75	=75	=75	=75
1D	.	.	1d	.	4A/]	.	(4ee#X\	.	.	.	.	.	.	.	.	.	1a	.	1a	.	1a	.	1aa	.
.	.	.	.	.	2A/	.	4ff#\)	.	.	.	.	.	.	.	.	.	.	.	.	.	.	.	.	.
.	.	.	.	.	.	.	4dd\|	.	.	.	.	.	.	.	.	.	.	.	.	.	.	.	.	.
.	.	.	.	.	4A/	.	4ff#\|	.	.	.	.	.	.	.	.	.	.	.	.	.	.	.	.	.
=76	=76	=76	=76	=76	=76	=76	=76	=76	=76	=76	=76	=76	=76	=76	=76	=76	=76	=76	=76	=76	=76	=76	=76	=76
!LO:SIC:v:s=2C#/	!	!	!	!	!	!	!	!	!	!	!	!	!	!	!	!	!	!	!	!	!	!	!	!
2C/	.	.	1e	.	4A/	.	(4aa\	.	.	.	.	.	.	.	.	.	1a	.	1a	.	2a/	.	2aa\	.
.	.	.	.	.	2A/	.	4gg\)	.	.	.	.	.	.	.	.	.	.	.	.	.	.	.	.	.
!LO:SIC:v:s=2c#\	!	!	!	!	!	!	!	!	!	!	!	!	!	!	!	!	!	!	!	!	!	!	!	!
2c\	.	.	.	.	.	.	(4ff#\	.	.	.	.	.	.	.	.	.	.	.	.	.	2r	.	2r	.
.	.	.	.	.	4A/	.	4ee\)	.	.	.	.	.	.	.	.	.	.	.	.	.	.	.	.	.
!	!	!	!LO:LB:g=original	!	!	!	!	!	!	!	!	!	!	!	!	!	!	!	!	!	!	!	!	!
=77	=77	=77	=77	=77	=77	=77	=77	=77	=77	=77	=77	=77	=77	=77	=77	=77	=77	=77	=77	=77	=77	=77	=77	=77
4d\|	.	.	4d\	.	2A/	.	4ff#\	.	.	.	.	.	.	.	.	.	2a\	.	2a\	.	00r	.	00r	.
!LO:SIC:v:s=4c#\|	!	!	!	!	!	!	!	!	!	!	!	!	!	!	!	!	!	!	!	!	!	!	!	!
4c\|	.	.	4c#X\	.	.	.	4ee\	.	.	.	.	.	.	.	.	.	.	.	.	.	.	.	.	.
4B\|	.	.	2B/	.	2f#/	.	2dd\	.	.	.	.	.	.	.	.	.	2r	.	2r	.	.	.	.	.
4A\|	.	.	.	.	.	.	.	.	.	.	.	.	.	.	.	.	.	.	.	.	.	.	.	.
!	!	!	!	!	!LO:LB:g=original	!	!	!	!	!	!	!	!	!	!	!	!	!	!	!	!	!	!	!
=78	=78	=78	=78	=78	=78	=78	=78	=78	=78	=78	=78	=78	=78	=78	=78	=78	=78	=78	=78	=78	=78	=78	=78	=78
!	!	!	!	!	!	!	!	!	!	!	!	!	!	!	!	!	!LO:TX:a:t=45	!	!LO:TX:a:t=45	!	!	!	!	!
4G\|	.	.	2B/	.	2e/	.	4e/	.	00r	.	0r	.	0r	.	1r	.	1r	.	1r	.	.	.	.	.
4E\|	.	.	.	.	.	.	4dd\	.	.	.	.	.	.	.	.	.	.	.	.	.	.	.	.	.
4A\|	.	.	2A/	.	2e/	.	4e/	.	.	.	.	.	.	.	.	.	.	.	.	.	.	.	.	.
4AA/|	.	.	.	.	.	.	4cc#X\	.	.	.	.	.	.	.	.	.	.	.	.	.	.	.	.	.
=79	=79	=79	=79	=79	=79	=79	=79	=79	=79	=79	=79	=79	=79	=79	=79	=79	=79	=79	=79	=79	=79	=79	=79	=79
2D\	.	.	2A/	.	2f#/	.	2dd\	.	.	.	.	.	.	.	2r	.	1r	.	1r	.	.	.	.	.
!	!	!	!	!	!	!	!	!LO:DY:a	!	!	!	!	!	!	!	!	!	!	!	!	!	!	!	!
2r	.	.	2r	.	2r	.	2dd\	f	.	.	.	.	.	.	2dd\	In	.	.	.	.	.	.	.	.
!	!	!	!	!	!	!	!	!	!	!	!	!	!LO:LB:g=original	!	!	!	!	!	!	!	!	!	!	!
=80	=80	=80	=80	=80	=80	=80	=80	=80	=80	=80	=80	=80	=80	=80	=80	=80	=80	=80	=80	=80	=80	=80	=80	=80
*clefC4	*	*	*	*	*	*	*	*	*	*	*	*	*	*	*	*	*	*	*	*	*	*	*	*
2r	.	.	2r	.	2r	.	4dd\	.	.	.	2r	.	2r	.	4dd\	glo-	1r	.	1r	.	.	.	.	.
.	.	.	.	.	.	.	8cc#X\L	.	.	.	.	.	.	.	8cc#X\	-ri-	.	.	.	.	.	.	.	.
.	.	.	.	.	.	.	8dd\J	.	.	.	.	.	.	.	8dd\	-a	.	.	.	.	.	.	.	.
!LO:TX:a:i:t=Tutti:rj	!	!	!	!LO:DY:a	!	!LO:DY:a	!	!	!	!	!	!	!	!	!	!	!	!	!	!	!	!	!	!
2G/	6	.	2G/	f	2b\	f	4ee\	.	.	.	2G/	In	2b\	in	4ee\	De-	.	.	.	.	.	.	.	.
.	5	.	.	.	.	.	4dd\	.	.	.	.	.	.	.	4dd\	-i	.	.	.	.	.	.	.	.
!	!	!	!	!	!	!	!	!	!	!	!	!	!	!	!LO:PB:g=original	!	!	!	!	!	!	!	!	!
=81	=81	=81	=81	=81	=81	=81	=81	=81	=81	=81	=81	=81	=81	=81	=81	=81	=81	=81	=81	=81	=81	=81	=81	=81
2.A\	#2	.	2.A/	.	4e/	.	4cc#X\	.	.	.	2.A/	glo-	2.e\	glo-	4cc#X\	Pa-	1r	.	1r	.	00r	.	00r	.
.	1	.	.	.	4d/	.	4b\	.	.	.	.	.	.	.	4b\	.	.	.	.	.	.	.	.	.
.	.	.	.	.	4c#X/	.	4a/	.	.	.	.	.	.	.	4a\	.	.	.	.	.	.	.	.	.
4G/	#4 2	.	4G/	.	8d/L	.	8b/L	.	.	.	4G/	-ri-	4e\	-ri-	8b\L	-tris	.	.	.	.	.	.	.	.
.	.	.	.	.	8e/J	.	8cc#/J	.	.	.	.	.	.	.	8cc#\J	.	.	.	.	.	.	.	.	.
=82	=82	=82	=82	=82	=82	=82	=82	=82	=82	=82	=82	=82	=82	=82	=82	=82	=82	=82	=82	=82	=82	=82	=82	=82
4F#/	6	.	4F#/	.	4a/	.	4dd\	.	00r	.	4F#/	-a	4a\	-a	4dd\	A-	1r	.	1r	.	.	.	.	.
4E/	6\	.	4E/	.	4g/	.	4ee\	.	.	.	4E/	De-	4g\	.	4ee\	.	.	.	.	.	.	.	.	.
4D/	.	.	4D/	.	2f#/	.	4ff#\	.	.	.	4D/	.	2f#\	.	4ff#\	.	.	.	.	.	.	.	.	.
4A/	#7	.	4A/	.	.	.	4ee\	.	.	.	4A\	-i	.	.	4ee\	.	.	.	.	.	.	.	.	.
=83	=83	=83	=83	=83	=83	=83	=83	=83	=83	=83	=83	=83	=83	=83	=83	=83	=83	=83	=83	=83	=83	=83	=83	=83
2.B\	3	.	2.B/	.	4f#/	.	4dd\	.	.	.	2.B\	Pa-	4f#\	De-	4dd\	.	1r	.	1r	.	.	.	.	.
.	2	.	.	.	4e/	.	4cc#X\	.	.	.	.	.	4e\	.	4cc#X\	.	.	.	.	.	.	.	.	.
.	1_	.	.	.	4d/	.	4b\	.	.	.	.	.	4d\	-i	4b\	.	.	.	.	.	.	.	.	.
4A\	.	.	4A/	.	4f#/	.	8cc#\L	.	.	.	4A\	-tris	4f#\	.	8cc#\L	.	.	.	.	.	.	.	.	.
.	.	.	.	.	.	.	8dd\J	.	.	.	.	.	.	.	8dd\J	.	.	.	.	.	.	.	.	.
!LO:LB:g=original	!	!	!	!	!	!	!	!	!	!	!	!	!	!	!	!	!	!	!	!	!	!	!	!
=84	=84	=84	=84	=84	=84	=84	=84	=84	=84	=84	=84	=84	=84	=84	=84	=84	=84	=84	=84	=84	=84	=84	=84	=84
4G/	6	.	4G/	.	4b/	.	4ee\	.	.	.	4G/	a-	4b\	Pa-	4ee\	.	1r	.	1r	.	.	.	.	.
4F#/	6\	.	4F#/	.	4a/	.	4ff#\	.	.	.	4F#/	.	4a\	.	4ff#\	.	.	.	.	.	.	.	.	.
4E/	.	.	4E/	.	4g/	.	4gg\	.	.	.	4E/	.	4g\	-tris	4gg\	.	.	.	.	.	.	.	.	.
!	!	!	!	!	!	!	!LO:TX:b:i:t=V&colon; Cito	!	!	!	!	!	!	!	!	!	!	!	!	!	!	!	!	!
4G/	6	.	4G/	.	4b/	.	4ee\	.	.	.	4G/	.	4b\	.	4ee\	.	.	.	.	.	.	.	.	.
!	!	!	!	!	!	!	!LO:PB:g=original	!	!	!	!	!	!	!	!	!	!	!	!	!	!	!	!	!
=85	=85	=85	=85	=85	=85	=85	=85	=85	=85	=85	=85	=85	=85	=85	=85	=85	=85	=85	=85	=85	=85	=85	=85	=85
2.A\	#_	.	2.A/	.	4e/	.	4cc#X\	.	.	.	2.A\	.	4e\	A-	4cc#X\	.	1r	.	1r	.	00r	.	00r	.
.	.	.	.	.	4d/	.	4b\	.	.	.	.	.	4d\	.	4b\	.	.	.	.	.	.	.	.	.
.	.	.	.	.	4c#X/	.	4a/	.	.	.	.	.	4c#X\	.	4a\	.	.	.	.	.	.	.	.	.
4G/	.	.	4G/	.	8d/L	.	8b\L	.	.	.	4G/	.	8d\L	.	8b\L	.	.	.	.	.	.	.	.	.
.	.	.	.	.	8e/J	.	8cc#\J	.	.	.	.	.	8e\J	.	8cc#\J	.	.	.	.	.	.	.	.	.
!	!	!	!	!	!	!	!	!	!	!	!LO:LB:g=original	!	!	!	!	!	!	!	!	!	!	!	!	!
=86	=86	=86	=86	=86	=86	=86	=86	=86	=86	=86	=86	=86	=86	=86	=86	=86	=86	=86	=86	=86	=86	=86	=86	=86
4F#/	6	.	4F#/	.	4a/	.	4dd\	.	00r	.	4F#/	.	4a\	.	4dd\	.	1r	.	1r	.	.	.	.	.
4E/	6\	.	4E/	.	4g/	.	4ee\	.	.	.	4E/	.	4g\	.	4ee\	.	.	.	.	.	.	.	.	.
4D/	.	.	4D/	.	4f#/	.	4ff#\	.	.	.	4D/	.	4f#\	-[men]	4ff#\	.	.	.	.	.	.	.	.	.
4F#/	6	.	4F#/	.	4a/	.	4dd\	.	.	.	4F#/	.	4a\	.	4dd\	.	.	.	.	.	.	.	.	.
!	!	!	!	!	!	!	!	!	!	!	!	!	!LO:PB:g=original	!	!	!	!	!	!	!	!	!	!	!
=87	=87	=87	=87	=87	=87	=87	=87	=87	=87	=87	=87	=87	=87	=87	=87	=87	=87	=87	=87	=87	=87	=87	=87	=87
2.G/	3_	.	2.G/	.	4d/	.	4b/	.	.	.	2.G/	.	1d	a-	4b\	.	1r	.	1r	.	.	.	.	.
!	!	!	!	!	!LO:SIC:v:s=4c#/	!	!	!	!	!	!	!	!	!	!	!	!	!	!	!	!	!	!	!
.	.	.	.	.	4c/	.	4a/	.	.	.	.	.	.	.	4a\	.	.	.	.	.	.	.	.	.
.	.	.	.	.	4B/	.	4g/	.	.	.	.	.	.	.	4g\	.	.	.	.	.	.	.	.	.
4F#/	.	.	4F#/	.	8c/L	.	8a/L	.	.	.	4F#/	.	.	.	8a\L	.	.	.	.	.	.	.	.	.
.	.	.	.	.	8d/J	.	8b/J	.	.	.	.	.	.	.	8b\J	.	.	.	.	.	.	.	.	.
!	!	!	!	!	!	!	!	!	!	!	!	!	!	!	!LO:LB:g=original	!	!	!	!	!	!	!	!	!
=88	=88	=88	=88	=88	=88	=88	=88	=88	=88	=88	=88	=88	=88	=88	=88	=88	=88	=88	=88	=88	=88	=88	=88	=88
4E/	6	.	4E/	.	4g/	.	4cc#X\	.	.	.	4E/	.	4g\	.	4cc#X\	.	1r	.	1r	.	.	.	.	.
4D/	6	.	4D/	.	4f#/	.	4dd\	.	.	.	4D/	.	4f#\	.	4dd\	.	.	.	.	.	.	.	.	.
4C/	.	.	4C/	.	4e/	.	4ee\	.	.	.	4C/	.	4e\	.	4ee\	.	.	.	.	.	.	.	.	.
4E/	6	.	4E/	.	4g/	.	4cc#\	.	.	.	4E/	.	4g\	.	4cc#\	.	.	.	.	.	.	.	.	.
=89	=89	=89	=89	=89	=89	=89	=89	=89	=89	=89	=89	=89	=89	=89	=89	=89	=89	=89	=89	=89	=89	=89	=89	=89
!	!	!	!	!	!LO:SIC:v:s=4c#/	!	!	!	!	!	!	!	!	!	!	!	!	!	!	!	!	!	!	!
2.F#/	#_	.	2.F#/	.	4c/	.	4a#X/	.	.	.	2.F#/	.	1c	.	4a#X\	.	1r	.	1r	.	0r	.	0r	.
.	.	.	.	.	4B/	.	4g#X/	.	.	.	.	.	.	.	4g#X\	.	.	.	.	.	.	.	.	.
.	.	.	.	.	4A#X/	.	4f#/	.	.	.	.	.	.	.	4f#/	.	.	.	.	.	.	.	.	.
4E/	.	.	4E/	.	8B/L	.	8g#/L	.	.	.	4E/	.	.	.	8g#\L	.	.	.	.	.	.	.	.	.
!	!	!	!	!	!LO:SIC:v:s=8c#/J	!	!	!	!	!	!	!	!	!	!	!	!	!	!	!	!	!	!	!
.	.	.	.	.	8c/J	.	8a#/J	.	.	.	.	.	.	.	8a#X\J	.	.	.	.	.	.	.	.	.
=90	=90	=90	=90	=90	=90	=90	=90	=90	=90	=90	=90	=90	=90	=90	=90	=90	=90	=90	=90	=90	=90	=90	=90	=90
2D#X/	6	.	2D#X/	.	2f#/	.	4b\	.	1r	.	1D#X	.	1f#	.	4b\	.	1r	.	1r	.	.	.	.	.
.	.	.	.	.	.	.	4dd#X\	.	.	.	.	.	.	.	4dd#X\	.	.	.	.	.	.	.	.	.
2d#X\	6	.	2d#X\	.	4b/	.	2ff#\	.	.	.	.	.	.	.	4ff#\	.	.	.	.	.	.	.	.	.
.	5	.	.	.	4a/	.	.	.	.	.	.	.	.	.	4an\	.	.	.	.	.	.	.	.	.
!	!	!	!	!	!	!	!	!	!	!	!	!	!	!	!	!	!	!	!	!	!	!	!LO:LB:g=original	!
=91	=91	=91	=91	=91	=91	=91	=91	=91	=91	=91	=91	=91	=91	=91	=91	=91	=91	=91	=91	=91	=91	=91	=91	=91
2e\	3	.	2e\	.	2g/	.	4gg\	.	2r	.	2E/	-men	2e\	-men	2g\	-men	1r	.	1r	.	2r	.	2r	.
.	.	.	.	.	.	.	4bb\	.	.	.	.	.	.	.	.	.	.	.	.	.	.	.	.	.
*clefF4	*	*	*	*	*	*	*	*	*	*	*	*	*	*	*	*	*	*	*	*	*	*	*	*
2E\	6\	.	2e\	.	2g/	.	4ccc#X\	.	2E\	In	2G/	In	2g\	in	2b\	In	.	.	.	.	2gg\	.	2bb\	.
.	5	.	.	.	.	.	4bb\	.	.	.	.	.	.	.	.	.	.	.	.	.	.	.	.	.
!	!	!	!LO:LB:g=original	!	!LO:LB:g=original	!	!	!	!	!	!	!	!	!	!	!	!	!	!	!	!LO:LB:g=original	!	!	!
=92	=92	=92	=92	=92	=92	=92	=92	=92	=92	=92	=92	=92	=92	=92	=92	=92	=92	=92	=92	=92	=92	=92	=92	=92
4E\	#4_ 2_	.	1f#	.	1cc#X	.	1aa#X	.	4E\	glo-	2.c#X\	glo-	2.f#\	glo-	2.a#X\	glo-	1r	.	1r	.	1cc#X	.	1aa#X	.
8D\L	.	.	.	.	.	.	.	.	8D\	-ri-	.	.	.	.	.	.	.	.	.	.	.	.	.	.
8E\J	.	.	.	.	.	.	.	.	8E\	-a	.	.	.	.	.	.	.	.	.	.	.	.	.	.
!	!	!	!	!	!	!	!	!	!LO:LB:g=original	!	!	!	!	!	!	!	!	!	!	!	!	!	!	!
4F#\	x	.	.	.	.	.	.	.	4F#\	De-	.	.	.	.	.	.	.	.	.	.	.	.	.	.
4E\	.	.	.	.	.	.	.	.	4E\	-i	4c#\	-ri-	4f#\	-ri-	4a#\	-ri-	.	.	.	.	.	.	.	.
=93	=93	=93	=93	=93	=93	=93	=93	=93	=93	=93	=93	=93	=93	=93	=93	=93	=93	=93	=93	=93	=93	=93	=93	=93
4D\	6	.	4d\	.	4ff#\	.	2.bb\	.	4D/	Pa-	1B	-a	4f#\	-a	2.b\	-a	1r	.	1r	.	4ff#\	.	2.bb\	.
!LO:SIC:v:s=4C#\	!	!	!LO:SIC:v:s=4c#\	!	!	!	!	!	!LO:SIC:v:s=4C#\	!	!	!	!	!	!	!	!	!	!	!	!	!	!	!
4C\	.	.	4c\	.	4ee\	.	.	.	4C/	.	.	.	4e\	.	.	.	.	.	.	.	4ee\	.	.	.
4BB/	8 #	.	4B\	.	4dd#X\	.	.	.	4BB/	-tris	.	.	4d#X\	.	.	.	.	.	.	.	4dd#X\	.	.	.
!LO:SIC:v:s=8C#/L	!	!	!LO:SIC:v:s=8c#\L	!	!	!	!	!	!LO:SIC:v:s=8C#/L	!	!	!	!	!	!	!	!	!	!	!	!	!	!	!
8C/L	6_ 3	.	8c\L	.	8ee\L	.	4aan\	.	8C/L	.	.	.	8e\L	.	4an\	.	.	.	.	.	8ee\L	.	4aa\	.
8D#X/J	x 3	.	8d#X\J	.	8ff#\J	.	.	.	8D#X/J	.	.	.	8f#\J	.	.	.	.	.	.	.	8ff#\J	.	.	.
=94	=94	=94	=94	=94	=94	=94	=94	=94	=94	=94	=94	=94	=94	=94	=94	=94	=94	=94	=94	=94	=94	=94	=94	=94
4E\	3	.	4e\	.	4b\	.	4gg\	.	4E\	a-	2B\	De-	4g\	De-	4g\	De-	1r	.	1r	.	4gg\	.	4gg\	.
4F#\	3	.	4f#\	.	4a\	.	4ff#\	.	4F#\	.	.	.	4f#\	.	4a\	.	.	.	.	.	4aa\	.	4aa\	.
4G\	3_	.	4g\	.	4b\	.	4ee\	.	4G\	.	2e\	-i	4e\	-i	2b\	-i	.	.	.	.	4gg\	.	2bb\	.
4F#\	.	.	4f#\	.	4a\	.	4b\	.	4F#\	.	.	.	4f#\	.	.	.	.	.	.	.	4aa\	.	.	.
!LO:LB:g=original	!	!	!	!	!	!	!	!	!	!	!LO:PB:g=original	!	!	!	!	!	!	!	!	!	!	!	!	!
=95	=95	=95	=95	=95	=95	=95	=95	=95	=95	=95	=95	=95	=95	=95	=95	=95	=95	=95	=95	=95	=95	=95	=95	=95
4E\	6_	.	4e\	.	4g/	.	2.cc\	.	4E\	.	2.cn\	Pa-	4g\	Pa-	2.cc\	Pa-	1r	.	1r	.	4gg\	.	2.ccc\	.
4D\	.	.	4d\	.	4f#/	.	.	.	4Dn\	.	.	.	4f#\	.	.	.	.	.	.	.	4ff#\	.	.	.
4C\	.	.	4c\	.	4e/	.	.	.	4C\	.	.	.	4e\	.	.	.	.	.	.	.	4ee\	.	.	.
8D\L	6	.	8d\L	.	8f#/L	.	4b\	.	8D\L	.	4c\	-tris	8f#\L	.	4b\	.	.	.	.	.	8ff#\L	.	4bb\	.
8E\J	.	.	8e\J	.	8g/J	.	.	.	8E\J	.	.	.	8g\J	.	.	.	.	.	.	.	8gg\J	.	.	.
!	!	!	!	!	!	!	!	!	!	!	!	!	!LO:LB:g=original	!	!LO:LB:g=original	!	!	!	!	!	!	!	!	!
=96	=96	=96	=96	=96	=96	=96	=96	=96	=96	=96	=96	=96	=96	=96	=96	=96	=96	=96	=96	=96	=96	=96	=96	=96
4F#\	3_	.	4f#\	.	4a/	.	2a/	.	4F#\	.	1c	a-	4a\	.	2a\	-tris	1r	.	1r	.	2aa\	.	2aa\	.
4G\	.	.	4g\	.	4g/	.	.	.	4G\	.	.	.	4g\	.	.	.	.	.	.	.	.	.	.	.
4A\	.	.	4a\	.	4f#/	.	2ff#\	.	4A\	.	.	.	2a\	-tris	2ff#\	a-	.	.	.	.	2r	.	2r	.
4F#\	.	.	4f#\	.	4a/	.	.	.	4F#\	.	.	.	.	.	.	.	.	.	.	.	.	.	.	.
!	!	!	!	!	!	!	!LO:LB:g=original	!	!	!	!	!	!	!	!	!	!	!	!	!	!	!	!	!
=97	=97	=97	=97	=97	=97	=97	=97	=97	=97	=97	=97	=97	=97	=97	=97	=97	=97	=97	=97	=97	=97	=97	=97	=97
1D#X	6\ 5	.	1B	.	4a/	.	1ff#	.	1D#X	.	1B	.	4a\	a-	1ff#	.	1r	.	1r	.	1gg	.	4r	.
.	.	.	.	.	8g/L	.	.	.	.	.	.	.	8g\L	.	.	.	.	.	.	.	.	.	4aa\	.
.	.	.	.	.	8a/J	.	.	.	.	.	.	.	8a\J	.	.	.	.	.	.	.	.	.	.	.
.	.	.	.	.	4b/	.	.	.	.	.	.	.	4b\	.	.	.	.	.	.	.	.	.	4bb\	.
.	.	.	.	.	4a/	.	.	.	.	.	.	.	4a\	.	.	.	.	.	.	.	.	.	4aa\	.
=98	=98	=98	=98	=98	=98	=98	=98	=98	=98	=98	=98	=98	=98	=98	=98	=98	=98	=98	=98	=98	=98	=98	=98	=98
2E\	#	.	1B	.	2g/	.	2ff#\	.	2E\	-men	2B\	-men	2g\	-men	2ff#\	.	1r	.	1r	.	2ee\	.	2gg\	.
4e\	#	.	.	.	2g#X/	.	2ee\	.	4e\	a-	2B\	a-	2r	.	2ee\	.	.	.	.	.	2ee\	.	2gg#X\	.
4d\	.	.	.	.	.	.	.	.	4d\	.	.	.	.	.	.	.	.	.	.	.	.	.	.	.
=99	=99	=99	=99	=99	=99	=99	=99	=99	=99	=99	=99	=99	=99	=99	=99	=99	=99	=99	=99	=99	=99	=99	=99	=99
4c\	6	.	4c\	.	2a/	.	4ee\	.	4c\	.	2c\	-men	2r	.	2ee\	-men	1r	.	1r	.	2ee\	.	2aa\	.
4B\	.	.	4B\	.	.	.	4dd\	.	4B\	.	.	.	.	.	.	.	.	.	.	.	.	.	.	.
2A\	.	.	2A/	.	2a/	.	2cc\	.	2A\	-men	2r	.	2a\	In	2r	.	.	.	.	.	2r	.	2r	.
!	!	!	!	!	!	!	!	!	!LO:LB:g=original	!	!	!	!	!	!	!	!	!	!	!	!	!	!	!
=100	=100	=100	=100	=100	=100	=100	=100	=100	=100	=100	=100	=100	=100	=100	=100	=100	=100	=100	=100	=100	=100	=100	=100	=100
2r	.	.	1fn	.	4a/	.	00r	.	2r	.	2r	.	4a\	glo-	00r	.	1r	.	1r	.	00r	.	00r	.
.	.	.	.	.	8g#X/L	.	.	.	.	.	.	.	8g#X\	-ri-	.	.	.	.	.	.	.	.	.	.
.	.	.	.	.	8a/J	.	.	.	.	.	.	.	8a\	-a	.	.	.	.	.	.	.	.	.	.
2D\	6	.	.	.	4b\	.	.	.	2D\	In	2fn\	In	4b\	De-	.	.	.	.	.	.	.	.	.	.
.	5	.	.	.	4a\	.	.	.	.	.	.	.	4a\	-i	.	.	.	.	.	.	.	.	.	.
=101	=101	=101	=101	=101	=101	=101	=101	=101	=101	=101	=101	=101	=101	=101	=101	=101	=101	=101	=101	=101	=101	=101	=101	=101
2.E\	#_	.	4B/	.	4g#X/	.	.	.	2.E\	glo-	2.B\	glo-	4g#X\	Pa-	.	.	1r	.	1r	.	.	.	.	.
.	.	.	4A/	.	4f#/	.	.	.	.	.	.	.	4f#\	.	.	.	.	.	.	.	.	.	.	.
.	.	.	4G#X/	.	4e/	.	.	.	.	.	.	.	4e\	.	.	.	.	.	.	.	.	.	.	.
4D\	.	.	8A/L	.	8f#/L	.	.	.	4D\	-ri-	4B\	-ri-	8f#\L	-tris	.	.	.	.	.	.	.	.	.	.
.	.	.	8B/J	.	8g#/J	.	.	.	.	.	.	.	8g#\J	.	.	.	.	.	.	.	.	.	.	.
=102	=102	=102	=102	=102	=102	=102	=102	=102	=102	=102	=102	=102	=102	=102	=102	=102	=102	=102	=102	=102	=102	=102	=102	=102
4C/	6	.	4e\	.	4a/	.	.	.	4C/	-a	4e\	-a	4a\	a-	.	.	1r	.	1r	.	.	.	.	.
4BB/	6\	.	4d\	.	4b/	.	.	.	4BB/	De-	4d\	De-	4b\	.	.	.	.	.	.	.	.	.	.	.
4AA/	.	.	4c\	.	4cc\	.	.	.	4AA/	-i	4c\	.	4cc\	.	.	.	.	.	.	.	.	.	.	.
4E\	#7r	.	4d\	.	4b\	.	.	.	4E\	.	4d\	-i	4b\	.	.	.	.	.	.	.	.	.	.	.
!	!	!	!	!	!	!	!	!	!	!	!	!	!LO:LB:g=original	!	!	!	!	!	!	!	!	!	!	!
=103	=103	=103	=103	=103	=103	=103	=103	=103	=103	=103	=103	=103	=103	=103	=103	=103	=103	=103	=103	=103	=103	=103	=103	=103
2.Fn\	3	.	1c	.	4a/	.	.	.	2.Fn\	Pa-	4c\	Pa-	4a\	.	.	.	1r	.	1r	.	.	.	.	.
.	.	.	.	.	4gn/	.	.	.	.	.	4B\	.	4g\	.	.	.	.	.	.	.	.	.	.	.
.	.	.	.	.	4fn/	.	.	.	.	.	4A\	-tris	4fn\	.	.	.	.	.	.	.	.	.	.	.
4E\	.	.	.	.	8g/L	.	.	.	4E\	-tris	8B\L	.	8g\L	.	.	.	.	.	.	.	.	.	.	.
.	.	.	.	.	8a/J	.	.	.	.	.	8c\J	.	8a\J	.	.	.	.	.	.	.	.	.	.	.
!	!	!	!	!	!	!	!	!	!	!	!LO:LB:g=original	!	!	!	!	!	!	!	!	!	!	!	!	!
=104	=104	=104	=104	=104	=104	=104	=104	=104	=104	=104	=104	=104	=104	=104	=104	=104	=104	=104	=104	=104	=104	=104	=104	=104
4D/	6	.	4fn\	.	4b\	.	00r	.	4D/	a-	4fn\	a-	4b\	.	00r	.	1r	.	1r	.	00r	.	00r	.
4C/	.	.	4e\	.	4cc\	.	.	.	4C/	.	4e\	.	4ccn\	.	.	.	.	.	.	.	.	.	.	.
4BB/	.	.	4d\	.	4dd\	.	.	.	4BB/	.	4d\	.	4dd\	.	.	.	.	.	.	.	.	.	.	.
4D/	6	.	4f\	.	4b\	.	.	.	4D/	.	4f\	.	4b\	.	.	.	.	.	.	.	.	.	.	.
!	!	!	!	!	!LO:LB:g=original	!	!	!	!	!	!	!	!	!	!	!	!	!	!	!	!	!	!	!
=105	=105	=105	=105	=105	=105	=105	=105	=105	=105	=105	=105	=105	=105	=105	=105	=105	=105	=105	=105	=105	=105	=105	=105	=105
2.E\	#	.	1B	.	4g#X/	.	.	.	2.E\	.	1B	.	4g#X\	.	.	.	1r	.	1r	.	.	.	.	.
.	.	.	.	.	4f#/	.	.	.	.	.	.	.	4f#\	.	.	.	.	.	.	.	.	.	.	.
.	.	.	.	.	4e/	.	.	.	.	.	.	.	4e\	.	.	.	.	.	.	.	.	.	.	.
4D\	.	.	.	.	8f#/L	.	.	.	4D\	.	.	.	8f#\L	.	.	.	.	.	.	.	.	.	.	.
.	.	.	.	.	8g#/J	.	.	.	.	.	.	.	8g#\J	.	.	.	.	.	.	.	.	.	.	.
!LO:LB:g=original	!	!	!	!	!	!	!	!	!	!	!	!	!	!	!	!	!	!	!	!	!	!	!	!
=106	=106	=106	=106	=106	=106	=106	=106	=106	=106	=106	=106	=106	=106	=106	=106	=106	=106	=106	=106	=106	=106	=106	=106	=106
4C/	6	.	4e\	.	2.a/	.	.	.	4C/	.	4e\	.	2.a\	.	.	.	1r	.	1r	.	.	.	.	.
4BB/	.	.	4d\	.	.	.	.	.	4BB/	.	4d\	.	.	.	.	.	.	.	.	.	.	.	.	.
4AA/	3	.	4c\	.	.	.	.	.	4AA/	.	4c\	.	.	.	.	.	.	.	.	.	.	.	.	.
8BB/L	.	.	8d\L	.	4g/	.	.	.	8BB/L	.	8d\L	.	4g\	.	.	.	.	.	.	.	.	.	.	.
8C/J	.	.	8e\J	.	.	.	.	.	8C/J	.	8e\J	.	.	.	.	.	.	.	.	.	.	.	.	.
!	!	!	!LO:LB:g=original	!	!	!	!	!	!	!	!	!	!	!	!	!	!	!	!	!	!	!	!	!
=107	=107	=107	=107	=107	=107	=107	=107	=107	=107	=107	=107	=107	=107	=107	=107	=107	=107	=107	=107	=107	=107	=107	=107	=107
2D\	#	.	1A	.	4f#/	.	.	.	2D\	.	1A	.	4f#X\	.	.	.	1r	.	1r	.	.	.	.	.
.	.	.	.	.	4e/	.	.	.	.	.	.	.	4e\	.	.	.	.	.	.	.	.	.	.	.
4d\	.	.	.	.	4d/	.	.	.	4d\	.	.	.	4d\	.	.	.	.	.	.	.	.	.	.	.
4c\	.	.	.	.	8e/L	.	.	.	4c\	.	.	.	8e\L	.	.	.	.	.	.	.	.	.	.	.
.	.	.	.	.	8f#/J	.	.	.	.	.	.	.	8f#\J	.	.	.	.	.	.	.	.	.	.	.
!	!	!	!	!	!	!	!	!	!LO:LB:g=original	!	!	!	!	!	!	!	!	!	!	!	!	!	!	!
=108	=108	=108	=108	=108	=108	=108	=108	=108	=108	=108	=108	=108	=108	=108	=108	=108	=108	=108	=108	=108	=108	=108	=108	=108
4B\	6	.	4d\	.	2g/	.	4r	.	4B\	.	4d\	.	2.g\	.	1r	.	1r	.	1r	.	00r	.	00r	.
4G\	.	.	4G/	.	.	.	4b\	.	4G\	.	4B\	.	.	.	.	.	.	.	.	.	.	.	.	.
4A\	.	.	4A/	.	2fn/	.	4cc\	.	4A\	.	4c\	.	.	.	.	.	.	.	.	.	.	.	.	.
4B\	n5	.	4B/	.	.	.	4dd\	.	4B\	.	4d\	.	4fn\	.	.	.	.	.	.	.	.	.	.	.
=109	=109	=109	=109	=109	=109	=109	=109	=109	=109	=109	=109	=109	=109	=109	=109	=109	=109	=109	=109	=109	=109	=109	=109	=109
*clefC4	*	*	*	*	*	*	*	*	*	*	*	*	*	*	*	*	*	*	*	*	*	*	*	*
4c\	3	.	4c/	.	2e/	.	2cc\	.	2c\	-men	4c\	-men	2e\	-men	2r	.	1r	.	1r	.	.	.	.	.
4B\	.	.	4B/	.	.	.	.	.	.	.	4B\	.	.	.	.	.	.	.	.	.	.	.	.	.
4A\	3	.	4A/	.	2e/	.	2cc\	.	2r	.	4A\	in	2r	.	2cc\	In	.	.	.	.	.	.	.	.
4G\	.	.	4G/	.	.	.	.	.	.	.	4G/	.	.	.	.	.	.	.	.	.	.	.	.	.
!	!	!	!	!	!	!	!	!	!	!	!	!	!LO:LB:g=original	!	!	!	!	!	!	!	!	!	!	!
=110	=110	=110	=110	=110	=110	=110	=110	=110	=110	=110	=110	=110	=110	=110	=110	=110	=110	=110	=110	=110	=110	=110	=110	=110
1Fn	5	.	2Fn/	.	1cc	.	4cc\	.	00r	.	2.Fn/	glo-	2r	.	4cc\	glo-	1r	.	1r	.	.	.	.	.
.	.	.	.	.	.	.	8b\L	.	.	.	.	.	.	.	8b\	-ri-	.	.	.	.	.	.	.	.
.	.	.	.	.	.	.	8cc\J	.	.	.	.	.	.	.	8cc\	-a	.	.	.	.	.	.	.	.
.	6	.	2fny\	.	.	.	4dd\	.	.	.	.	.	2a\	a-	4dd\	De-	.	.	.	.	.	.	.	.
.	5	.	.	.	.	.	4cc\	.	.	.	4F/	-ri-	.	.	4cc\	-i	.	.	.	.	.	.	.	.
=111	=111	=111	=111	=111	=111	=111	=111	=111	=111	=111	=111	=111	=111	=111	=111	=111	=111	=111	=111	=111	=111	=111	=111	=111
2.G/	.	.	2.g\	.	4d/	.	4b/	.	.	.	2.G/	-a	1d	.	4b\	Pa-	1r	.	1r	.	.	.	.	.
.	.	.	.	.	4c/	.	4a/	.	.	.	.	.	.	.	4a\	.	.	.	.	.	.	.	.	.
.	.	.	.	.	4B/	.	4g/	.	.	.	.	.	.	.	4g\	.	.	.	.	.	.	.	.	.
!LO:SIC:v:s=4Fn/	!	!	!LO:SIC:v:s=4fn\	!	!	!	!	!	!	!	!	!	!	!	!	!	!	!	!	!	!	!	!	!
4F#/	.	.	4f#\	.	8c/L	.	8a/L	.	.	.	4F#/	De-	.	.	8a\L	-tris	.	.	.	.	.	.	.	.
.	.	.	.	.	8d/J	.	8b/J	.	.	.	.	.	.	.	8b\J	.	.	.	.	.	.	.	.	.
=112	=112	=112	=112	=112	=112	=112	=112	=112	=112	=112	=112	=112	=112	=112	=112	=112	=112	=112	=112	=112	=112	=112	=112	=112
4E/	5	.	4e\	.	4g/	.	4cc\	.	.	.	4E/	-i	4g\	.	4cc\	A-	1r	.	1r	.	00r	.	00r	.
.	6	.	.	.	.	.	.	.	.	.	.	.	.	.	.	.	.	.	.	.	.	.	.	.
!	!	!	!	!	!LO:SIC:v:s=4fn/	!	!	!	!	!	!	!	!LO:SIC:v:s=4fn\	!	!	!	!	!	!	!	!	!	!	!
4D/	.	.	4d\	.	4f#/	.	4dd\	.	.	.	4D/	.	4f#\	.	4dd\	.	.	.	.	.	.	.	.	.
4C/	.	.	4c\	.	4e/	.	4ee\	.	.	.	4C/	.	2e\	.	4ee\	.	.	.	.	.	.	.	.	.
4G/	7 5	.	4G/	.	4e/	.	4dd\	.	.	.	4G/	.	.	.	4dd\	.	.	.	.	.	.	.	.	.
!	!	!	!	!	!	!	!	!	!	!	!LO:LB:g=original	!	!	!	!	!	!	!	!	!	!	!	!	!
=113	=113	=113	=113	=113	=113	=113	=113	=113	=113	=113	=113	=113	=113	=113	=113	=113	=113	=113	=113	=113	=113	=113	=113	=113
2.A/	3_	.	2.A/	.	4e/	.	4cc\	.	.	.	2.A\	Pa-	4e\	.	4cc\	.	1r	.	1r	.	.	.	.	.
.	.	.	.	.	4d/	.	4b\	.	.	.	.	.	4d\	.	4b\	.	.	.	.	.	.	.	.	.
.	.	.	.	.	4c/	.	4a/	.	.	.	.	.	4c\	.	4a\	.	.	.	.	.	.	.	.	.
4G/	.	.	4G/	.	8d/L	.	8b\L	.	.	.	4G/	-tris	4e\	.	8b\L	.	.	.	.	.	.	.	.	.
.	.	.	.	.	8e/J	.	8cc\J	.	.	.	.	.	.	.	8cc\J	.	.	.	.	.	.	.	.	.
!	!	!	!	!	!	!	!	!	!	!	!	!	!	!	!LO:LB:g=original	!	!	!	!	!	!	!	!	!
=114	=114	=114	=114	=114	=114	=114	=114	=114	=114	=114	=114	=114	=114	=114	=114	=114	=114	=114	=114	=114	=114	=114	=114	=114
4Fn/	6	.	4Fn/	.	4a/	.	4dd\	.	0r	.	4Fn/	a-	4a\	.	4dd\	.	1r	.	1r	.	.	.	.	.
4E/	8	.	4E/	.	4g/	.	4ee\	.	.	.	4E/	.	4g\	.	4ee\	.	.	.	.	.	.	.	.	.
!	!	!	!	!	!LO:SIC:v:s=4fn/	!	!	!	!	!	!	!	!LO:SIC:v:s=4fn\	!	!	!	!	!	!	!	!	!	!	!
4D/	n3	.	4D/	.	4f#/	.	4ffn\	.	.	.	4D/	.	4f#\	.	4ffn\	.	.	.	.	.	.	.	.	.
4F/	6	.	4F/	.	4a/	.	4dd\	.	.	.	4F/	.	4a\	.	4dd\	.	.	.	.	.	.	.	.	.
=115	=115	=115	=115	=115	=115	=115	=115	=115	=115	=115	=115	=115	=115	=115	=115	=115	=115	=115	=115	=115	=115	=115	=115	=115
2.G/	n_	.	2.G/	.	4d/	.	4b/	.	.	.	2.G/	.	1d	.	4b\	.	1r	.	1r	.	.	.	.	.
.	.	.	.	.	4c/	.	4a/	.	.	.	.	.	.	.	4a\	.	.	.	.	.	.	.	.	.
.	.	.	.	.	4B/	.	4g/	.	.	.	.	.	.	.	4g\	.	.	.	.	.	.	.	.	.
!LO:SIC:v:s=4Fn/	!	!	!LO:SIC:v:s=4Fn/	!	!	!	!	!	!	!	!	!	!	!	!	!	!	!	!	!	!	!	!	!
4F#/	.	.	4F#/	.	8c/L	.	8a/L	.	.	.	4Fn/	.	.	.	8a\L	.	.	.	.	.	.	.	.	.
.	.	.	.	.	8d/J	.	8b/J	.	.	.	.	.	.	.	8b\J	.	.	.	.	.	.	.	.	.
!LO:LB:g=original	!	!	!	!	!	!	!	!	!	!	!	!	!	!	!	!	!	!	!	!	!	!	!	!
=116	=116	=116	=116	=116	=116	=116	=116	=116	=116	=116	=116	=116	=116	=116	=116	=116	=116	=116	=116	=116	=116	=116	=116	=116
4E/	6	.	4E/	.	4g/	.	1cc	.	4r	.	2E/	-men	4g\	-men	(1cc	.	1r	.	1r	.	00r	.	00r	.
*clefF4	*	*	*	*	*	*	*	*	*	*	*	*	*	*	*	*	*	*	*	*	*	*	*	*
!	!	!	!	!	!LO:SIC:v:s=4fn/	!	!	!	!	!	!	!	!	!	!	!	!	!	!	!	!	!	!	!
4C/	8 3	.	4c\	.	4f#/	.	.	.	4C/	In	.	.	4e\	In	.	.	.	.	.	.	.	.	.	.
4C/	3	.	4c\	.	4e/	.	.	.	4C/	glo-	2r	.	4e\	glo-	.	.	.	.	.	.	.	.	.	.
!	!	!	!	!	!LO:SIC:v:s=8fn/L	!	!	!	!	!	!	!	!LO:SIC:v:s=8fn\L	!	!	!	!	!	!	!	!	!	!	!
8D\L	3	.	8d\L	.	8f#/L	.	.	.	(8D\	-ri-	.	.	8f#\L	-ri-	.	.	.	.	.	.	.	.	.	.
8E\J	3	.	8e\J	.	8g/J	.	.	.	8E\)	.	.	.	8g\J	.	.	.	.	.	.	.	.	.	.	.
!	!	!	!	!	!	!	!LO:LB:g=original	!	!	!	!	!	!	!	!	!	!	!	!	!	!	!	!	!
=117	=117	=117	=117	=117	=117	=117	=117	=117	=117	=117	=117	=117	=117	=117	=117	=117	=117	=117	=117	=117	=117	=117	=117	=117
!LO:SIC:v:s=1Fn	!	!	!LO:SIC:v:s=1fn	!	!	!	!	!	!	!	!	!	!	!	!	!	!	!	!	!	!	!	!	!
1F#	5	.	1f#	.	1a	.	4cc\	.	1Fn	-a	00r	.	1a	-a	4cc\)	-men	1r	.	1r	.	.	.	.	.
.	.	.	.	.	.	.	4a\	.	.	.	.	.	.	.	4a\	In	.	.	.	.	.	.	.	.
.	.	.	.	.	.	.	4a\	.	.	.	.	.	.	.	4a\	glo-	.	.	.	.	.	.	.	.
.	.	.	.	.	.	.	8b\L	.	.	.	.	.	.	.	8b\L	-ri-	.	.	.	.	.	.	.	.
.	.	.	.	.	.	.	8cc\J	.	.	.	.	.	.	.	8cc\J	.	.	.	.	.	.	.	.	.
=118	=118	=118	=118	=118	=118	=118	=118	=118	=118	=118	=118	=118	=118	=118	=118	=118	=118	=118	=118	=118	=118	=118	=118	=118
!LO:SIC:v:s=4Fn\	!	!	!LO:SIC:v:s=4fn\	!	!	!	!	!	!LO:SIC:v:s=4Fn\	!	!	!	!	!	!	!	!	!	!	!	!	!	!	!
4F#\	6_	.	4f#\	.	4a/	.	1dd	.	4F#\	De-	.	.	4a\	De-	1dd	-a	1r	.	1r	.	.	.	.	.
4D\	.	.	4d\	.	4fn/	.	.	.	4D\	-i	.	.	4fn\	-i	.	.	.	.	.	.	.	.	.	.
!	!	!	!	!	!LO:LB:g=original	!	!	!	!	!	!	!	!	!	!	!	!	!	!	!	!	!	!	!
4D\	.	.	4d\	.	4f/	.	.	.	4D\	Pa-	.	.	4f\	Pa-	.	.	.	.	.	.	.	.	.	.
8E\L	.	.	8e\L	.	8g/L	.	.	.	8E\L	-tris	.	.	8g\L	.	.	.	.	.	.	.	.	.	.	.
!LO:SIC:v:s=8Fn\J	!	!	!LO:SIC:v:s=8fn\J	!	!	!	!	!	!LO:SIC:v:s=8fn\J	!	!	!	!	!	!	!	!	!	!	!	!	!	!	!
8F#\J	.	.	8f#\J	.	8a/J	.	.	.	8F#\J	.	.	.	8a\J	.	.	.	.	.	.	.	.	.	.	.
!	!	!	!	!	!	!	!	!	!	!	!	!	!LO:LB:g=original	!	!	!	!	!	!	!	!	!	!	!
=119	=119	=119	=119	=119	=119	=119	=119	=119	=119	=119	=119	=119	=119	=119	=119	=119	=119	=119	=119	=119	=119	=119	=119	=119
*	*	*	*	*	*	*	*	*	*	*ij	*	*	*	*	*	*	*	*	*	*	*	*	*	*
1G	5	.	1g	.	1b	.	4dd\	.	1G	Pa-	.	.	1b	.	4dd\	De-	1r	.	1r	.	.	.	.	.
.	.	.	.	.	.	.	4b\	.	.	.	.	.	.	.	4b\	-i	.	.	.	.	.	.	.	.
.	.	.	.	.	.	.	4b\	.	.	.	.	.	.	.	4b\	Pa-	.	.	.	.	.	.	.	.
.	.	.	.	.	.	.	8cc\L	.	.	.	.	.	.	.	8cc\L	.	.	.	.	.	.	.	.	.
.	.	.	.	.	.	.	8dd\J	.	.	.	.	.	.	.	8dd\J	.	.	.	.	.	.	.	.	.
=120	=120	=120	=120	=120	=120	=120	=120	=120	=120	=120	=120	=120	=120	=120	=120	=120	=120	=120	=120	=120	=120	=120	=120	=120
4G\	6_	.	4g\	.	4b/	.	1ee	.	4G\	-tris	.	.	4b\	-tris	1ee	.	1r	.	1r	.	0r	.	0r	.
*	*	*	*	*	*	*	*	*	*	*Xij	*	*	*	*	*	*	*	*	*	*	*	*	*	*
4E\	.	.	4e\	.	4g/	.	.	.	4E\	.	.	.	4g\	.	.	.	.	.	.	.	.	.	.	.
4E\	.	.	4e\	.	4g/	.	.	.	4E\	a-	.	.	4g\	.	.	.	.	.	.	.	.	.	.	.
!LO:SIC:v:s=8Fn\L	!	!	!LO:SIC:v:s=8fn\L	!	!	!	!	!	!LO:SIC:v:s=8Fn\L	!	!	!	!	!	!	!	!	!	!	!	!	!	!	!
8F#\L	.	.	8f#\L	.	8a/L	.	.	.	8F#\L	.	.	.	8a\L	a-	.	.	.	.	.	.	.	.	.	.
8G\J	.	.	8g\J	.	8b/J	.	.	.	8G\J	.	.	.	8b\J	.	.	.	.	.	.	.	.	.	.	.
!	!	!	!LO:LB:g=original	!	!	!	!	!	!LO:LB:g=original	!	!	!	!	!	!	!	!	!	!	!	!	!	!	!
=121	=121	=121	=121	=121	=121	=121	=121	=121	=121	=121	=121	=121	=121	=121	=121	=121	=121	=121	=121	=121	=121	=121	=121	=121
1A	5	.	1a	.	1cc	.	4ee\	.	1A	.	0r	.	1cc	.	4ee\	-tris	1r	.	1r	.	.	.	.	.
.	.	.	.	.	.	.	4cc\	.	.	.	.	.	.	.	4cc\	.	.	.	.	.	.	.	.	.
.	.	.	.	.	.	.	4a\	.	.	.	.	.	.	.	4a\	A-	.	.	.	.	.	.	.	.
.	.	.	.	.	.	.	8b\L	.	.	.	.	.	.	.	8b\L	.	.	.	.	.	.	.	.	.
.	.	.	.	.	.	.	8cc\J	.	.	.	.	.	.	.	8cc\J	.	.	.	.	.	.	.	.	.
=122	=122	=122	=122	=122	=122	=122	=122	=122	=122	=122	=122	=122	=122	=122	=122	=122	=122	=122	=122	=122	=122	=122	=122	=122
4F#X\	6	.	4f#X\	.	4a/	.	2.dd\	.	4F#X\	.	.	.	4a\	-men	2.dd\	.	1r	.	1r	.	1r	.	1r	.
4D\	#	.	4d\	.	4f#X/	.	.	.	4D\	.	.	.	4f#X\	.	.	.	.	.	.	.	.	.	.	.
4D\	#	.	4d\	.	4f#/	.	.	.	4D\	.	.	.	4f#\	.	.	.	.	.	.	.	.	.	.	.
8E\L	3	.	8e\L	.	8g/L	.	4cc\	.	8E\L	.	.	.	8g\L	a-	4cc\	.	.	.	.	.	.	.	.	.
8F#\J	3	.	8f#\J	.	8a/J	.	.	.	8F#\J	.	.	.	8a\J	.	.	.	.	.	.	.	.	.	.	.
!	!	!	!	!	!	!	!	!	!	!	!	!	!	!	!LO:LB:g=original	!	!	!	!	!	!	!	!	!
=123	=123	=123	=123	=123	=123	=123	=123	=123	=123	=123	=123	=123	=123	=123	=123	=123	=123	=123	=123	=123	=123	=123	=123	=123
4G\	3	.	4g\	.	2b\	.	2b\	.	4G\	-men	2r	.	2g\	-men	2b\	-men	2r	.	2r	.	2r	.	2r	.
4F#\	.	.	4f#\	.	.	.	.	.	4F#\	.	.	.	.	.	.	.	.	.	.	.	.	.	.	.
4E\	3_	.	4e\	.	2b\	.	2gg\	.	(4E\	in	2B\	in	2g\	In	2b\	in	2B/	.	2g\	.	2b\	.	2gg\	.
4D\	.	.	4d\	.	.	.	.	.	4D\)	.	.	.	.	.	.	.	.	.	.	.	.	.	.	.
!	!	!	!	!	!	!	!	!	!	!	!	!	!	!	!	!	!LO:LB:g=original	!	!	!	!	!	!LO:LB:g=original	!
=124	=124	=124	=124	=124	=124	=124	=124	=124	=124	=124	=124	=124	=124	=124	=124	=124	=124	=124	=124	=124	=124	=124	=124	=124
2C/	5	.	2c\	.	1ee	.	4gg\	.	2C/	glo-	2A\	glo-	4g\	glo-	2ee\	glo-	2g\	.	2g\	.	1ee	.	4gg\	.
.	.	.	.	.	.	.	8ff#\L	.	.	.	.	.	8f#\	-ri-	.	.	.	.	.	.	.	.	8ff#\L	.
.	.	.	.	.	.	.	8gg\J	.	.	.	.	.	8g\	-a	.	.	.	.	.	.	.	.	8gg\J	.
2c\	6	.	2a\	.	.	.	4aa\	.	4c\	-ri-	4A\	-ri-	4a\	De-	4ee\	-ri-	2a\	.	2a\	.	.	.	4aa\	.
.	5	.	.	.	.	.	4gg\	.	4c\	-a	4A\	-a	4g\	-i	4ee\	-a	.	.	.	.	.	.	4gg\	.
!	!	!	!	!	!	!	!	!	!	!	!	!	!	!	!	!	!	!	!LO:LB:g=original	!	!	!	!	!
=125	=125	=125	=125	=125	=125	=125	=125	=125	=125	=125	=125	=125	=125	=125	=125	=125	=125	=125	=125	=125	=125	=125	=125	=125
2.d\	#_	.	2d\	.	4a/	.	4ff#\	.	2.d\	De-	2A\	De-	4f#\	Pa-	2dd\	De-	1d	.	1a	.	1a	.	4ff#\	.
.	.	.	.	.	4g/	.	4ee\	.	.	.	.	.	4e\	.	.	.	.	.	.	.	.	.	4ee\	.
.	.	.	2A/	.	4f#/	.	4dd\	.	.	.	2A\	-i	4d\	.	2dd\	-i	.	.	.	.	.	.	4dd\	.
4c\	.	.	.	.	8g/L	.	8ee\L	.	4c\	-i	.	.	8e\L	-tris	.	.	.	.	.	.	.	.	8ee\L	.
.	.	.	.	.	8a/J	.	8ff#\J	.	.	.	.	.	8f#\J	.	.	.	.	.	.	.	.	.	8ff#\J	.
!	!	!	!	!	!	!	!	!	!	!	!	!	!LO:LB:g=original	!	!	!	!	!	!	!	!	!	!	!
=126	=126	=126	=126	=126	=126	=126	=126	=126	=126	=126	=126	=126	=126	=126	=126	=126	=126	=126	=126	=126	=126	=126	=126	=126
4B\	6	.	1d	.	4dd\	.	4gg\	.	(4B\	Pa-	4B\	Pa-	4g\	.	4dd\	Pa-	4B/	.	4g\	.	4dd\	.	4gg\	.
4A\	6\	.	.	.	4cc\	.	4aa\	.	4A\)	.	4c\	.	4a\	.	4cc\	.	4d/	.	4a\	.	4cc\	.	4aa\	.
!LO:LB:g=original	!	!	!	!	!	!	!	!	!	!	!	!	!	!	!	!	!	!	!	!	!	!	!	!
4G\	3	.	.	.	4b\	.	4bb\	.	4G\	-tris	4d\	-tris	4b\	.	2b\	-tris	4g\	.	4b\	.	4b\	.	4bb\	.
!	!	!	!	!	!	!	!	!	!	!	!LO:SIC:v:s=4d\	!	!	!	!	!	!	!	!	!	!	!	!	!
4D\	5	.	.	.	4a\	.	4aa\	.	4D\	.	4e\	.	4a\	.	.	.	4d/	.	4a\	.	4a\	.	4aa\	.
!	!	!	!	!	!	!	!	!	!	!	!	!	!	!	!	!	!	!	!	!	!LO:LB:g=original	!	!	!
=127	=127	=127	=127	=127	=127	=127	=127	=127	=127	=127	=127	=127	=127	=127	=127	=127	=127	=127	=127	=127	=127	=127	=127	=127
2E\	3	.	1e	.	4b/	.	4gg\	.	2.E\	a-	1e	a-	4g\	a-	1b	a-	2B/	.	2g\	.	1b	.	4gg\	.
.	.	.	.	.	4a/	.	4ff#\	.	.	.	.	.	4f#\	.	.	.	.	.	.	.	.	.	4ff#\	.
4e\	8_	.	.	.	4g/	.	4ee\	.	.	.	.	.	4e\	.	.	.	2r	.	2r	.	.	.	4ee\	.
4d\	.	.	.	.	8a/L	.	8ff#\L	.	4D\	.	.	.	8f#\L	.	.	.	.	.	.	.	.	.	8ff#\L	.
!	!	!	!	!	!	!	!LO:SIC:v:s=8gg#\J	!	!	!	!	!	!	!	!	!	!	!	!	!	!	!	!	!
.	.	.	.	.	8b/J	.	8gg\J	.	.	.	.	.	8g#X\J	.	.	.	.	.	.	.	.	.	8gg\J	.
!	!	!	!	!	!	!	!	!	!	!	!LO:LB:g=original	!	!	!	!	!	!	!	!	!	!	!	!	!
=128	=128	=128	=128	=128	=128	=128	=128	=128	=128	=128	=128	=128	=128	=128	=128	=128	=128	=128	=128	=128	=128	=128	=128	=128
4c\	6	.	4c/	.	4ee\	.	4aa\	.	4c\	.	4c\	.	4a\	.	1ee	.	2a\	.	4a\	.	4ee\	.	4aa\	.
4B\	6\	.	4B/	.	4dd\	.	4bb\	.	4B\	.	4d\	.	4b\	.	.	.	.	.	4b\	.	4dd\	.	4bb\	.
4A\	.	.	4A/	.	4cc\	.	4ccc\	.	4A\	.	4c\	.	4cc\	.	.	.	2a\	.	2cc\	.	4cc\	.	4ccc\	.
4c\	6	.	4c/	.	4ee\	.	4aa\	.	4c\	.	4e\	.	4a\	.	.	.	.	.	.	.	4ee\	.	4aa\	.
!	!	!	!	!	!	!	!	!	!LO:LB:g=original	!	!	!	!	!	!	!	!	!	!	!	!	!	!LO:LB:g=original	!
=129	=129	=129	=129	=129	=129	=129	=129	=129	=129	=129	=129	=129	=129	=129	=129	=129	=129	=129	=129	=129	=129	=129	=129	=129
2.d\	#_	.	1d	.	4a/	.	4ff#\	.	2.d\	.	1d	.	4f#\	.	1a	.	1d	.	1a	.	1dd	.	4ff#\	.
.	.	.	.	.	4g/	.	4ee\	.	.	.	.	.	4e\	.	.	.	.	.	.	.	.	.	4ee\	.
.	.	.	.	.	4f#/	.	4dd\	.	.	.	.	.	4d\	.	.	.	.	.	.	.	.	.	4dd\	.
4c\	#	.	.	.	8g/L	.	8ee\L	.	4c\	.	.	.	8e\L	.	.	.	.	.	.	.	.	.	8ee\L	.
.	.	.	.	.	8a/J	.	8ff#\J	.	.	.	.	.	8f#\J	.	.	.	.	.	.	.	.	.	8ff#\J	.
=130	=130	=130	=130	=130	=130	=130	=130	=130	=130	=130	=130	=130	=130	=130	=130	=130	=130	=130	=130	=130	=130	=130	=130	=130
4B\	6_	.	4B/	.	4dd\	.	1gg	.	4B\	.	2d\	.	1g	.	4dd\	.	2B/	.	1g	.	4dd\	.	1gg	.
4G\	.	.	4G/	.	4b\	.	.	.	4G\	.	.	.	.	.	4b\	.	.	.	.	.	4b\	.	.	.
4A\	.	.	4A/	.	4cc\	.	.	.	4A\	.	4d\	.	.	.	4cc\	.	2g\	.	.	.	4cc\	.	.	.
4B\	.	.	4B/	.	4dd\	.	.	.	4B\	.	4d\	.	.	.	4dd\	.	.	.	.	.	4dd\	.	.	.
=131	=131	=131	=131	=131	=131	=131	=131	=131	=131	=131	=131	=131	=131	=131	=131	=131	=131	=131	=131	=131	=131	=131	=131	=131
4c\	6_ 3_	.	4c\	.	4ee\	.	4gg\	.	1c	.	1c	.	1g	.	1ee	.	2a\	.	2a\	.	4ee\	.	4gg\	.
8c\L	.	.	8c\L	.	2ee\	.	2gg\	.	.	.	.	.	.	.	.	.	.	.	.	.	2ee\	.	2gg\	.
8B\J	.	.	8B\J	.	.	.	.	.	.	.	.	.	.	.	.	.	.	.	.	.	.	.	.	.
4c\	.	.	4c\	.	.	.	.	.	.	.	.	.	.	.	.	.	4a\	.	4a\	.	.	.	.	.
4c\	.	.	4c\	.	4ee\	.	4gg\	.	.	.	.	.	.	.	.	.	4a\	.	4a\	.	4ee\	.	4gg\	.
!	!	!	!	!	!LO:LB:g=original	!	!	!	!	!	!	!	!	!	!	!	!	!	!	!	!	!	!	!
=132	=132	=132	=132	=132	=132	=132	=132	=132	=132	=132	=132	=132	=132	=132	=132	=132	=132	=132	=132	=132	=132	=132	=132	=132
4c#X\	.	.	4c#X\	.	4a 4e/	.	4gg\	.	1c#X	.	1A	.	[1g	.	1ee	.	2a\	.	2a\	.	4ee\	.	4gg\	.
8c#\L	x	.	8c#\L	.	2a 2e/	.	2gg\	.	.	.	.	.	.	.	.	.	.	.	.	.	2ee\	.	2gg\	.
8B\J	.	.	8B\J	.	.	.	.	.	.	.	.	.	.	.	.	.	.	.	.	.	.	.	.	.
4c#X\	.	.	4c#\	.	.	.	.	.	.	.	.	.	.	.	.	.	2a\	.	2a\	.	.	.	.	.
4c#\	.	.	4c#\	.	4a 4e/	.	4gg\	.	.	.	.	.	.	.	.	.	.	.	.	.	4ee\	.	[y4gg\	.
=133	=133	=133	=133	=133	=133	=133	=133	=133	=133	=133	=133	=133	=133	=133	=133	=133	=133	=133	=133	=133	=133	=133	=133	=133
!	!	!	!	!	!	!	!	!	!	!	!	!	!	!	!	!	!	!	!	!	!	!	!LO:N:xstem:cue	!
2d\	.	.	2d\	.	2a 2e/	.	4gg\	.	2d\	-men	2A\	-men	4g\]	.	2a\	-men	2d/	.	1d	.	2dd\	.	4gg\]	.
!	!	!	!	!	!	!	!	!	!	!	!	!	!	!	!	!	!	!	!	!	!	!	!LO:LB:g=original	!
.	.	.	.	.	.	.	4ff#\	.	.	.	.	.	4f#\	.	.	.	.	.	.	.	.	.	4ff#\	.
!LO:TX:b:i:t=Taſto	!	!	!	!	!	!	!	!	!	!	!	!	!	!	!	!	!	!	!	!	!	!	!	!
[<2D\	.	.	4r	.	4r	.	2aa\	.	2D\	a-	4r	.	[y2a\	.	4r	.	2r	.	.	.	4r	.	[y2aa\	.
.	.	.	4f#\	.	4cc\	.	.	.	.	.	4A\	a-	.	.	4cc\	A-	.	.	.	.	4cc\	.	.	.
=134	=134	=134	=134	=134	=134	=134	=134	=134	=134	=134	=134	=134	=134	=134	=134	=134	=134	=134	=134	=134	=134	=134	=134	=134
!	!	!	!	!	!	!	!	!	!	!	!	!	!LO:N:xstem:cue	!	!	!	!	!	!	!	!	!	!LO:N:xstem:cue	!
1D_<	.	.	2g\	.	2b\	.	4aa\	.	1D	.	2G/	-men	4a\]	.	2b\	.	1B	.	1g	.	2b\	.	4aa\]	.
.	.	.	.	.	.	.	4gg\	.	.	.	.	.	4g\	.	.	.	.	.	.	.	.	.	4gg\	.
.	.	.	4r	.	4r	.	[y2bb\	.	.	.	4r	.	2b\	.	4r	.	.	.	.	.	4r	.	2bb\	.
*	*	*	*	*	*	*	*	*	*	*	*	*ij	*	*	*	*	*	*	*	*	*	*	*	*
.	.	.	4g\	.	4dd\	.	.	.	.	.	4G/	a-	.	.	4dd\	.	.	.	.	.	4dd\	.	.	.
!	!	!	!LO:LB:g=original	!	!	!	!	!	!	!	!	!	!LO:LB:g=original	!	!LO:LB:g=original	!	!	!	!	!	!	!	!	!
=135	=135	=135	=135	=135	=135	=135	=135	=135	=135	=135	=135	=135	=135	=135	=135	=135	=135	=135	=135	=135	=135	=135	=135	=135
!	!	!	!	!	!	!	!LO:N:xstem:cue	!	!	!	!	!	!	!	!	!	!	!	!	!	!	!	!	!
1D_<	.	.	1a	.	1cc	.	4bb\]	.	1D	.	1A	-men	4b\	.	1cc	.	1g	.	1g	.	1cc	.	4bb\	.
.	.	.	.	.	.	.	4gg\	.	.	.	.	.	4g\	.	.	.	.	.	.	.	.	.	4gg\	.
.	.	.	.	.	.	.	4ee\	.	.	.	.	.	4e\	.	.	.	.	.	.	.	.	.	4ee\	.
.	.	.	.	.	.	.	4gg\	.	.	.	.	.	4g\	.	.	.	.	.	.	.	.	.	4gg\	.
=136	=136	=136	=136	=136	=136	=136	=136	=136	=136	=136	=136	=136	=136	=136	=136	=136	=136	=136	=136	=136	=136	=136	=136	=136
1D_<	.	.	4a\	.	4cc\	.	1aa	.	1D	.	1c	a-	1a	.	4cc\	.	1d	.	1a	.	1cc	.	1aa	.
.	.	.	4f#\	.	4a\	.	.	.	.	.	.	.	.	.	4a\	.	.	.	.	.	.	.	.	.
.	.	.	4d\	.	4f#/	.	.	.	.	.	.	.	.	.	4f#\	.	.	.	.	.	.	.	.	.
.	.	.	4f#\	.	4a/	.	.	.	.	.	.	.	.	.	4a\	.	.	.	.	.	.	.	.	.
!	!	!	!	!	!	!	!	!	!	!	!	!	!	!	!	!	!LO:LB:g=original	!	!	!	!	!	!	!
=137	=137	=137	=137	=137	=137	=137	=137	=137	=137	=137	=137	=137	=137	=137	=137	=137	=137	=137	=137	=137	=137	=137	=137	=137
1D]	.	.	1g	.	1b	.	4aa\	.	1D	.	1B	-men	4a\	.	1b	.	1d	.	1a	.	1b	.	4aa\	.
*	*	*	*	*	*	*	*	*	*	*	*	*Xij	*	*	*	*	*	*	*	*	*	*	*	*
.	.	.	.	.	.	.	4ff#\	.	.	.	.	.	4f#\	.	.	.	.	.	.	.	.	.	4ff#\	.
.	.	.	.	.	.	.	4dd\	.	.	.	.	.	4d\	.	.	.	.	.	.	.	.	.	4dd\	.
.	.	.	.	.	.	.	4ff#\	.	.	.	.	.	4f#\	.	.	.	.	.	.	.	.	.	4ff#\	.
!LO:LB:g=original	!	!	!	!	!	!	!	!	!	!	!	!	!	!	!	!	!	!	!	!	!	!	!	!
=138	=138	=138	=138	=138	=138	=138	=138	=138	=138	=138	=138	=138	=138	=138	=138	=138	=138	=138	=138	=138	=138	=138	=138	=138
[<1D	.	.	4g\	.	4b\	.	1gg	.	1D	.	1B	a-	1g	.	4b\	.	1B	.	1g	.	1b	.	1gg	.
.	.	.	4d\	.	4g/	.	.	.	.	.	.	.	.	.	4g\	.	.	.	.	.	.	.	.	.
.	.	.	4B\	.	4e/	.	.	.	.	.	.	.	.	.	4b\	.	.	.	.	.	.	.	.	.
.	.	.	4d\	.	4b/	.	.	.	.	.	.	.	.	.	4g\	.	.	.	.	.	.	.	.	.
=139	=139	=139	=139	=139	=139	=139	=139	=139	=139	=139	=139	=139	=139	=139	=139	=139	=139	=139	=139	=139	=139	=139	=139	=139
1D_<	.	.	1f#	.	1g	.	4gg\|	.	1D	.	1A	.	1g	.	1cc#X	.	1g	.	1g	.	1cc#X	.	1gg	.
.	.	.	.	.	.	.	4ee\|	.	.	.	.	.	.	.	.	.	.	.	.	.	.	.	.	.
.	.	.	.	.	.	.	(4dd\	.	.	.	.	.	.	.	.	.	.	.	.	.	.	.	.	.
.	.	.	.	.	.	.	4cc#X\)	.	.	.	.	.	.	.	.	.	.	.	.	.	.	.	.	.
!	!	!	!	!	!	!	!	!	!	!	!	!	!	!	!	!	!	!	!LO:LB:g=original	!	!	!	!	!
=140	=140	=140	=140	=140	=140	=140	=140	=140	=140	=140	=140	=140	=140	=140	=140	=140	=140	=140	=140	=140	=140	=140	=140	=140
!	!	!	!	!	!	!	!	!	!	!	!	!	!	!	!LO:SIC:v:s=1cc#	!	!	!	!	!	!LO:SIC:v:s=1cc#	!	!	!
1D_<	.	.	1e	.	1g	.	4gg\|	.	1D	.	1A	.	1g	.	1cc	.	1a	.	1a	.	1cc	.	1gg	.
.	.	.	.	.	.	.	4ee\|	.	.	.	.	.	.	.	.	.	.	.	.	.	.	.	.	.
.	.	.	.	.	.	.	(4dd\	.	.	.	.	.	.	.	.	.	.	.	.	.	.	.	.	.
.	.	.	.	.	.	.	4cc#X\)	.	.	.	.	.	.	.	.	.	.	.	.	.	.	.	.	.
!	!	!	!	!	!	!	!	!	!	!	!LO:LB:g=original	!	!	!	!	!	!	!	!	!	!	!	!	!
=141	=141	=141	=141	=141	=141	=141	=141	=141	=141	=141	=141	=141	=141	=141	=141	=141	=141	=141	=141	=141	=141	=141	=141	=141
2D\]	.	.	2d\	.	2f#/	.	4dd\	.	2D\	-men	2A\	-men	2f#\	men	2dd\	-men	2d/	.	2a\	.	2dd\	.	2ff#\	.
.	.	.	.	.	.	.	4ddd\	.	.	.	.	.	.	.	.	.	.	.	.	.	.	.	.	.
2r	.	.	2r	.	2r	.	4dd\	.	2r	.	2r	.	2r	.	2r	.	2r	.	2r	.	2r	.	2r	.
!	!	!	!	!	!	!	!	!LO:DY:a:rj	!	!	!	!	!	!	!	!	!	!	!	!	!	!	!	!
.	.	.	.	.	.	.	4dd\	p	.	.	.	.	.	.	.	.	.	.	.	.	.	.	.	.
!	!	!	!	!	!	!	!LO:LB:g=original	!	!LO:LB:g=original	!	!	!	!	!	!	!	!	!	!	!	!LO:LB:g=original	!	!	!
=142	=142	=142	=142	=142	=142	=142	=142	=142	=142	=142	=142	=142	=142	=142	=142	=142	=142	=142	=142	=142	=142	=142	=142	=142
00r	.	.	1r	.	1r	.	8dd\L	.	00r	.	00r	.	00r	.	00r	.	00r	.	00r	.	00r	.	00r	.
.	.	.	.	.	.	.	8cc#X\	.	.	.	.	.	.	.	.	.	.	.	.	.	.	.	.	.
.	.	.	.	.	.	.	8dd\	.	.	.	.	.	.	.	.	.	.	.	.	.	.	.	.	.
.	.	.	.	.	.	.	8ee\J	.	.	.	.	.	.	.	.	.	.	.	.	.	.	.	.	.
.	.	.	.	.	.	.	4dd\	.	.	.	.	.	.	.	.	.	.	.	.	.	.	.	.	.
.	.	.	.	.	.	.	4dd\	.	.	.	.	.	.	.	.	.	.	.	.	.	.	.	.	.
=143	=143	=143	=143	=143	=143	=143	=143	=143	=143	=143	=143	=143	=143	=143	=143	=143	=143	=143	=143	=143	=143	=143	=143	=143
!	!	!	!	!LO:DY:a	!	!LO:DY:a:t=p.	!	!	!	!	!	!	!	!	!	!	!	!	!	!	!	!	!	!
.	.	.	4d\	p	4f#/	p	1dd	.	.	.	.	.	.	.	.	.	.	.	.	.	.	.	.	.
.	.	.	4e\	.	4g/	.	.	.	.	.	.	.	.	.	.	.	.	.	.	.	.	.	.	.
.	.	.	4f#\	.	4a/	.	.	.	.	.	.	.	.	.	.	.	.	.	.	.	.	.	.	.
.	.	.	4e\	.	4g/	.	.	.	.	.	.	.	.	.	.	.	.	.	.	.	.	.	.	.
=144	=144	=144	=144	=144	=144	=144	=144	=144	=144	=144	=144	=144	=144	=144	=144	=144	=144	=144	=144	=144	=144	=144	=144	=144
.	.	.	4d\	.	4f#/	.	1dd	.	.	.	.	.	.	.	.	.	.	.	.	.	.	.	.	.
.	.	.	4c\	.	4e/	.	.	.	.	.	.	.	.	.	.	.	.	.	.	.	.	.	.	.
.	.	.	4B/	.	4d/	.	.	.	.	.	.	.	.	.	.	.	.	.	.	.	.	.	.	.
.	.	.	4A/	.	4c/	.	.	.	.	.	.	.	.	.	.	.	.	.	.	.	.	.	.	.
=145	=145	=145	=145	=145	=145	=145	=145	=145	=145	=145	=145	=145	=145	=145	=145	=145	=145	=145	=145	=145	=145	=145	=145	=145
.	.	.	4G/	.	4B/	.	1dd	.	.	.	.	.	.	.	.	.	.	.	.	.	.	.	.	.
.	.	.	4B/	.	4g/	.	.	.	.	.	.	.	.	.	.	.	.	.	.	.	.	.	.	.
.	.	.	4d/	.	4b/	.	.	.	.	.	.	.	.	.	.	.	.	.	.	.	.	.	.	.
.	.	.	4B/	.	4g/	.	.	.	.	.	.	.	.	.	.	.	.	.	.	.	.	.	.	.
=146	=146	=146	=146	=146	=146	=146	=146	=146	=146	=146	=146	=146	=146	=146	=146	=146	=146	=146	=146	=146	=146	=146	=146	=146
1r	.	.	4A/	.	4f#/	.	1dd	.	00r	.	00r	.	00r	.	00r	.	1r	.	1r	.	1r	.	1r	.
.	.	.	4B/	.	4g/	.	.	.	.	.	.	.	.	.	.	.	.	.	.	.	.	.	.	.
.	.	.	4c/	.	4a/	.	.	.	.	.	.	.	.	.	.	.	.	.	.	.	.	.	.	.
.	.	.	4A/	.	4f#/	.	.	.	.	.	.	.	.	.	.	.	.	.	.	.	.	.	.	.
=147	=147	=147	=147	=147	=147	=147	=147	=147	=147	=147	=147	=147	=147	=147	=147	=147	=147	=147	=147	=147	=147	=147	=147	=147
!	!	!LO:DY:a:t=pp&colon;	!	!LO:DY:a:t=pp.	!	!LO:DY:a	!	!LO:DY:a:t=pp&colon;	!	!	!	!	!	!	!	!	!	!	!LO:TX:a:i:t=Solo:rj	!	!LO:TX:a:i:t=Solo:rj	!	!LO:TX:a:i:t=Solo:rj	!
2GG/	.	pp	2G/	pp	4G/	pp	2.dd\	pp	.	.	.	.	.	.	.	.	1b	.	1dd	.	2.bb\	.	2.ddd\	.
.	.	.	.	.	4B/	.	.	.	.	.	.	.	.	.	.	.	.	.	.	.	.	.	.	.
2r	.	.	2r	.	4d/	.	.	.	.	.	.	.	.	.	.	.	.	.	.	.	.	.	.	.
.	.	.	.	.	4B/	.	8ee\L	.	.	.	.	.	.	.	.	.	.	.	.	.	8ccc\L	.	8ccc\L	.
.	.	.	.	.	.	.	8dd\J	.	.	.	.	.	.	.	.	.	.	.	.	.	8bb\J	.	8bb\J	.
!	!	!	!	!	!LO:LB:g=original	!	!	!	!	!	!	!	!	!	!	!	!	!	!	!	!	!	!	!
=148	=148	=148	=148	=148	=148	=148	=148	=148	=148	=148	=148	=148	=148	=148	=148	=148	=148	=148	=148	=148	=148	=148	=148	=148
2G\	.	.	2g\	.	4G/	.	2b\	.	.	.	.	.	.	.	.	.	2g\	.	2b\	.	2gg\	.	2bb\	.
.	.	.	.	.	4B/	.	.	.	.	.	.	.	.	.	.	.	.	.	.	.	.	.	.	.
2r	.	.	2r	.	4d/	.	2r	.	.	.	.	.	.	.	.	.	2r	.	2r	.	2r	.	2r	.
.	.	.	.	.	4B/	.	.	.	.	.	.	.	.	.	.	.	.	.	.	.	.	.	.	.
=149	=149	=149	=149	=149	=149	=149	=149	=149	=149	=149	=149	=149	=149	=149	=149	=149	=149	=149	=149	=149	=149	=149	=149	=149
2D\|	.	.	2d\	.	4A/	.	2cc\	.	.	.	.	.	.	.	.	.	2a\	.	2cc\	.	2aa\	.	2ccc\	.
.	.	.	.	.	4d/	.	.	.	.	.	.	.	.	.	.	.	.	.	.	.	.	.	.	.
2r	.	.	2r	.	4f#/	.	2ccT\	.	.	.	.	.	.	.	.	.	2a\	.	2cc\	.	2aa\	.	2ccc\	.
.	.	.	.	.	4d/	.	.	.	.	.	.	.	.	.	.	.	.	.	.	.	.	.	.	.
!	!	!	!	!	!	!	!	!	!	!	!	!	!	!	!	!	!	!	!	!	!	!	!LO:LB:g=original	!
=150	=150	=150	=150	=150	=150	=150	=150	=150	=150	=150	=150	=150	=150	=150	=150	=150	=150	=150	=150	=150	=150	=150	=150	=150
2DD/|>	.	.	2D/	.	4A/	.	2a/	.	00r	.	00r	.	00r	.	00r	.	2d/	.	2a\	.	2ff#\	.	2ccc\	.
.	.	.	.	.	4d/	.	.	.	.	.	.	.	.	.	.	.	.	.	.	.	.	.	.	.
2r	.	.	2r	.	4f#/	.	2r	.	.	.	.	.	.	.	.	.	2r	.	2r	.	2r	.	2r	.
.	.	.	.	.	4d/	.	.	.	.	.	.	.	.	.	.	.	.	.	.	.	.	.	.	.
!	!	!	!LO:LB:g=original	!	!	!	!	!	!	!	!	!	!	!	!	!	!	!	!	!	!	!	!	!
=151	=151	=151	=151	=151	=151	=151	=151	=151	=151	=151	=151	=151	=151	=151	=151	=151	=151	=151	=151	=151	=151	=151	=151	=151
2GG/|>	.	.	2G/	.	4B/	.	2b\	.	.	.	.	.	.	.	.	.	2g\	.	2b\	.	2dd\	.	2bb\	.
.	.	.	.	.	4d/	.	.	.	.	.	.	.	.	.	.	.	.	.	.	.	.	.	.	.
!	!	!	!	!	!	!	!	!	!	!	!	!	!	!	!	!	!	!	!LO:SIC:v:s=2b\	!	!	!	!	!
2r	.	.	2r	.	4g/	.	2b\	.	.	.	.	.	.	.	.	.	2g\	.	2a\	.	2dd\	.	2bb\	.
.	.	.	.	.	4d/	.	.	.	.	.	.	.	.	.	.	.	.	.	.	.	.	.	.	.
=152	=152	=152	=152	=152	=152	=152	=152	=152	=152	=152	=152	=152	=152	=152	=152	=152	=152	=152	=152	=152	=152	=152	=152	=152
2G\|	.	.	2g\	.	4B/	.	2.g/	.	.	.	.	.	.	.	.	.	2B/	.	2g\	.	2b\	.	2gg\	.
.	.	.	.	.	4d/	.	.	.	.	.	.	.	.	.	.	.	.	.	.	.	.	.	.	.
2r	.	.	2r	.	4B/	.	.	.	.	.	.	.	.	.	.	.	2r	.	2r	.	4r	.	4r	.
.	.	.	.	.	4d/	.	4b/	.	.	.	.	.	.	.	.	.	.	.	.	.	4gg\	.	4bb\	.
=153	=153	=153	=153	=153	=153	=153	=153	=153	=153	=153	=153	=153	=153	=153	=153	=153	=153	=153	=153	=153	=153	=153	=153	=153
2r	.	.	2r	.	4c/	.	4b/	.	.	.	.	.	.	.	.	.	0r	.	0r	.	2ee\	.	4bb\	.
.	.	.	.	.	4e/	.	4a/	.	.	.	.	.	.	.	.	.	.	.	.	.	.	.	4aa\	.
2C/|>	.	.	2c\	.	4c/	.	4cc/	.	.	.	.	.	.	.	.	.	.	.	.	.	2cc\	.	4ccc\	.
.	.	.	.	.	4e/	.	4a/	.	.	.	.	.	.	.	.	.	.	.	.	.	.	.	4aa\	.
=154	=154	=154	=154	=154	=154	=154	=154	=154	=154	=154	=154	=154	=154	=154	=154	=154	=154	=154	=154	=154	=154	=154	=154	=154
2D\|	.	.	2d\	.	4B/	.	4g/	.	00r	.	00r	.	00r	.	00r	.	.	.	.	.	1a	.	4gg\	.
.	.	.	.	.	4d/	.	4f#/	.	.	.	.	.	.	.	.	.	.	.	.	.	.	.	4ff#\	.
2DD/|>	.	.	2A/	.	4B/	.	4e/	.	.	.	.	.	.	.	.	.	.	.	.	.	.	.	4ee\	.
.	.	.	.	.	4d/	.	4d/	.	.	.	.	.	.	.	.	.	.	.	.	.	.	.	4dd\	.
=155	=155	=155	=155	=155	=155	=155	=155	=155	=155	=155	=155	=155	=155	=155	=155	=155	=155	=155	=155	=155	=155	=155	=155	=155
2GG/|>	.	.	2G/	.	4G/	.	2.dd\	.	.	.	.	.	.	.	.	.	1b	.	1dd	.	2.bb\	.	2.ddd\	.
.	.	.	.	.	4B/	.	.	.	.	.	.	.	.	.	.	.	.	.	.	.	.	.	.	.
2r	.	.	2r	.	4d/	.	.	.	.	.	.	.	.	.	.	.	.	.	.	.	.	.	.	.
.	.	.	.	.	4B/	.	8ee\L	.	.	.	.	.	.	.	.	.	.	.	.	.	8ccc\L	.	8eee\L	.
.	.	.	.	.	.	.	8dd\J	.	.	.	.	.	.	.	.	.	.	.	.	.	8bb\J	.	8ddd\J	.
=156	=156	=156	=156	=156	=156	=156	=156	=156	=156	=156	=156	=156	=156	=156	=156	=156	=156	=156	=156	=156	=156	=156	=156	=156
2G\|	.	.	2G/	.	4G/	.	2b\	.	.	.	.	.	.	.	.	.	2g\	.	2b\	.	2gg\	.	2bb\	.
.	.	.	.	.	4B/	.	.	.	.	.	.	.	.	.	.	.	.	.	.	.	.	.	.	.
2r	.	.	2r	.	4d/	.	2r	.	.	.	.	.	.	.	.	.	2r	.	2r	.	2r	.	2r	.
.	.	.	.	.	4B/	.	.	.	.	.	.	.	.	.	.	.	.	.	.	.	.	.	.	.
!	!	!	!	!	!	!	!	!	!	!	!	!	!	!	!	!	!LO:LB:g=original	!	!	!	!	!	!	!
=157	=157	=157	=157	=157	=157	=157	=157	=157	=157	=157	=157	=157	=157	=157	=157	=157	=157	=157	=157	=157	=157	=157	=157	=157
2D\|	.	.	2d\	.	4A/	.	2cc\	.	.	.	.	.	.	.	.	.	2a\	.	2cc\	.	2aa\	.	2ccc\	.
.	.	.	.	.	4d/	.	.	.	.	.	.	.	.	.	.	.	.	.	.	.	.	.	.	.
2r	.	.	2r	.	4f#/	.	2ccT\	.	.	.	.	.	.	.	.	.	2a\	.	2cc\	.	2aa\	.	2ccc\	.
.	.	.	.	.	4d/	.	.	.	.	.	.	.	.	.	.	.	.	.	.	.	.	.	.	.
!LO:LB:g=original	!	!	!	!	!	!	!LO:LB:g=original	!	!	!	!	!	!	!	!	!	!	!	!	!	!	!	!	!
=158	=158	=158	=158	=158	=158	=158	=158	=158	=158	=158	=158	=158	=158	=158	=158	=158	=158	=158	=158	=158	=158	=158	=158	=158
2DD/|>	.	.	2D/	.	4A/	.	2a/	.	00r	.	00r	.	00r	.	00r	.	2d/	.	2a\	.	2ff#\	.	2ccc\	.
.	.	.	.	.	4d/	.	.	.	.	.	.	.	.	.	.	.	.	.	.	.	.	.	.	.
2r	.	.	2r	.	4f#/	.	2r	.	.	.	.	.	.	.	.	.	2r	.	2r	.	2r	.	2r	.
.	.	.	.	.	4d/	.	.	.	.	.	.	.	.	.	.	.	.	.	.	.	.	.	.	.
!	!	!	!	!	!	!	!	!	!	!	!	!	!	!	!	!	!	!	!LO:LB:g=original	!	!LO:LB:g=original	!	!	!
=159	=159	=159	=159	=159	=159	=159	=159	=159	=159	=159	=159	=159	=159	=159	=159	=159	=159	=159	=159	=159	=159	=159	=159	=159
2GG/|>	.	.	2G/	.	4B/	.	2b\	.	.	.	.	.	.	.	.	.	2g\	.	2b\	.	2dd\	.	2bb\	.
.	.	.	.	.	4d/	.	.	.	.	.	.	.	.	.	.	.	.	.	.	.	.	.	.	.
!	!	!	!	!	!	!	!	!	!	!	!	!	!	!	!	!	!LO:SIC:v:s=2g\	!	!	!	!	!	!	!
2r	.	.	2r	.	4g/	.	2b\	.	.	.	.	.	.	.	.	.	2f#\	.	2b\	.	2dd\	.	2bb\	.
.	.	.	.	.	4d/	.	.	.	.	.	.	.	.	.	.	.	.	.	.	.	.	.	.	.
=160	=160	=160	=160	=160	=160	=160	=160	=160	=160	=160	=160	=160	=160	=160	=160	=160	=160	=160	=160	=160	=160	=160	=160	=160
2G\	.	.	2g\	.	4B/	.	2.g\	.	.	.	.	.	.	.	.	.	2B/	.	2g\	.	2b\	.	2gg\	.
.	.	.	.	.	4d/	.	.	.	.	.	.	.	.	.	.	.	.	.	.	.	.	.	.	.
2r|	.	.	2r	.	4B/	.	.	.	.	.	.	.	.	.	.	.	2r	.	2r	.	4r	.	4r	.
.	.	.	.	.	4d/	.	4b\	.	.	.	.	.	.	.	.	.	.	.	.	.	4gg\	.	4bb\	.
!	!	!	!	!	!LO:LB:g=original	!	!	!	!	!	!	!	!	!	!	!	!	!	!	!	!	!	!LO:LB:g=original	!
=161	=161	=161	=161	=161	=161	=161	=161	=161	=161	=161	=161	=161	=161	=161	=161	=161	=161	=161	=161	=161	=161	=161	=161	=161
2r	.	.	2r	.	4c/	.	4b\	.	.	.	.	.	.	.	.	.	2r	.	2r	.	2ee\	.	4bb\	.
.	.	.	.	.	4e/	.	4a\	.	.	.	.	.	.	.	.	.	.	.	.	.	.	.	4aa\	.
2C/|>	.	.	2c\	.	4c/	.	4cc\	.	.	.	.	.	.	.	.	.	2a\	.	2a\	.	2cc\	.	4ccc\	.
.	.	.	.	.	4e/	.	4a\	.	.	.	.	.	.	.	.	.	.	.	.	.	.	.	4aa\	.
=162	=162	=162	=162	=162	=162	=162	=162	=162	=162	=162	=162	=162	=162	=162	=162	=162	=162	=162	=162	=162	=162	=162	=162	=162
2D\|	.	.	2d\	.	4B/	.	2g/	.	1r	.	1r	.	1r	.	1r	.	2g\	.	2b\	.	2b\	.	2gg\	.
.	.	.	.	.	4d/	.	.	.	.	.	.	.	.	.	.	.	.	.	.	.	.	.	.	.
2DD/|>	.	.	2A/	.	4c/	.	2f#/	.	.	.	.	.	.	.	.	.	2d/	.	2a\	.	2a\	.	2ff#\	.
.	.	.	.	.	4d/	.	.	.	.	.	.	.	.	.	.	.	.	.	.	.	.	.	.	.
=163	=163	=163	=163	=163	=163	=163	=163	=163	=163	=163	=163	=163	=163	=163	=163	=163	=163	=163	=163	=163	=163	=163	=163	=163
!LO:TX:a:i:t=Baſso\npleno	!	!	!	!LO:DY:a:t=f.	!	!	!	!	!	!	!	!	!	!	!	!	!	!LO:DY:a	!	!LO:DY:a	!LO:TX:a:i:t=Tutti	!	!LO:TX:a:i:t=Tutti	!
4GG/	.	.	4G/	f	2B/	.	2g/	.	2r	.	2r	.	2r	.	2r	.	2B/	f	2g\	f	2b\	.	2gg\	.
8G\L	.	.	8g\L	.	.	.	.	.	.	.	.	.	.	.	.	.	.	.	.	.	.	.	.	.
8A\J	.	.	8a\J	.	.	.	.	.	.	.	.	.	.	.	.	.	.	.	.	.	.	.	.	.
!	!	!	!	!	!	!LO:DY:a:rj	!	!LO:DY:a:rj	!LO:TX:a:i:t=Tutti	!	!	!	!	!	!	!	!	!	!	!	!	!	!	!
4B\	6	.	4b\	.	2b\	f	2gg\	f	2G\	In	2d\	In	2g\	In	2b\	In	2B/	.	2g\	.	2b\	.	2gg\	.
4G\	.	.	4g\	.	.	.	.	.	.	.	.	.	.	.	.	.	.	.	.	.	.	.	.	.
=164	=164	=164	=164	=164	=164	=164	=164	=164	=164	=164	=164	=164	=164	=164	=164	=164	=164	=164	=164	=164	=164	=164	=164	=164
2d\	6 4	.	2d\	.	4b\	.	4gg\	.	2d\	glo-	2d\	glo-	2g\	glo-	2b\	glo-	2B/	.	2g\	.	2b\	.	2gg\	.
.	.	.	.	.	8a\L	.	8ff#\L	.	.	.	.	.	.	.	.	.	.	.	.	.	.	.	.	.
.	.	.	.	.	8b\J	.	8gg\J	.	.	.	.	.	.	.	.	.	.	.	.	.	.	.	.	.
2D\	6 3	.	2d\	.	4cc\	.	4aa\	.	4D\	-ri-	4d\	-ri-	4a\	-ri-	4cc\	-ri-	2d/	.	2a\	.	4cc\	.	4aa\	.
.	.	.	.	.	4a\	.	4ff#\	.	4D\	-a	4d\	-a	4f#\	-a	4a\	-a	.	.	.	.	4a\	.	4ff#\	.
=165	=165	=165	=165	=165	=165	=165	=165	=165	=165	=165	=165	=165	=165	=165	=165	=165	=165	=165	=165	=165	=165	=165	=165	=165
!	!	!	!	!	!LO:TX:a:t=P:problem:brak taktów nr 165-166	!	!	!	!	!	!	!	!	!	!	!	!	!	!	!	!	!	!	!
4G\	.	.	4G/	.	1ryy	.	4gg\	.	2G\	De-	2d\	De-	2g\	De-	2b\	De-	2B/	.	2g\	.	2b\	.	2gg\	.
8G\L	.	.	8g\L	.	.	.	2gg\	.	.	.	.	.	.	.	.	.	.	.	.	.	.	.	.	.
8A\J	.	.	8a\J	.	.	.	.	.	.	.	.	.	.	.	.	.	.	.	.	.	.	.	.	.
4B\	6	.	4b\	.	.	.	.	.	4B\	-i	2d\	-i	2g\	-i	2b\	-i	4B/	.	4g\	.	2b\	.	2gg\	.
4G\	.	.	4g\	.	.	.	4gg\	.	4G\	.	.	.	.	.	.	.	4B/	.	4g\	.	.	.	.	.
!	!	!	!LO:LB:g=original	!	!	!	!	!	!	!	!	!	!LO:LB:g=original	!	!	!	!	!	!	!	!	!	!	!
=166	=166	=166	=166	=166	=166	=166	=166	=166	=166	=166	=166	=166	=166	=166	=166	=166	=166	=166	=166	=166	=166	=166	=166	=166
2d\	6 4	.	2d\	.	1ryy	.	4gg\	.	2d\	Pa-	2d\	Pa-	2g\	Pa-	2b\	Pa-	2B/	.	2g\	.	2b\	.	2gg\	.
.	.	.	.	.	.	.	8ff#\L	.	.	.	.	.	.	.	.	.	.	.	.	.	.	.	.	.
.	.	.	.	.	.	.	8gg\J	.	.	.	.	.	.	.	.	.	.	.	.	.	.	.	.	.
2D\	5 3	.	2d\	.	.	.	4aa\	.	2D\	-tris	2d\	-tris	4a\	-tris	4cc\	-tris	2d/	.	2a\	.	4cc\	.	4aa\	.
.	.	.	.	.	.	.	4ff#\	.	.	.	.	.	4f#\	.	4a\	.	.	.	.	.	4a\	.	4ff#\	.
!	!	!	!	!	!	!	!	!	!	!	!	!	!	!	!LO:LB:g=original	!	!	!	!	!	!	!	!	!
=167	=167	=167	=167	=167	=167	=167	=167	=167	=167	=167	=167	=167	=167	=167	=167	=167	=167	=167	=167	=167	=167	=167	=167	=167
2G\	.	.	2g\	.	4b\	.	4gg\	.	2G\	a-	1d	a-	2g\	a-	2b\	A-	2B/	.	2g\	.	2b\	.	2gg\	.
.	.	.	.	.	8a\L	.	8ff#\L	.	.	.	.	.	.	.	.	.	.	.	.	.	.	.	.	.
.	.	.	.	.	8b\J	.	8gg\J	.	.	.	.	.	.	.	.	.	.	.	.	.	.	.	.	.
2D\	7	.	2d\	.	4cc\	.	4aa\	.	2D\	.	.	.	4a\	.	4cc\	.	2d/	.	2a\	.	4cc\	.	4aa\	.
.	.	.	.	.	4a\	.	4ff#\	.	.	.	.	.	4f#\	.	4a\	.	.	.	.	.	4a\	.	4ff#\	.
=168	=168	=168	=168	=168	=168	=168	=168	=168	=168	=168	=168	=168	=168	=168	=168	=168	=168	=168	=168	=168	=168	=168	=168	=168
2G\	.	.	2g\	.	4b\	.	4gg\	.	2G\	.	1d	.	2g\	.	2b\	.	2B/	.	2g\	.	2b\	.	2gg\	.
.	.	.	.	.	8a\L	.	8ff#\L	.	.	.	.	.	.	.	.	.	.	.	.	.	.	.	.	.
.	.	.	.	.	8b\J	.	8gg\J	.	.	.	.	.	.	.	.	.	.	.	.	.	.	.	.	.
2D\	7	.	2d\	.	4cc\	.	4aa\	.	2D\	.	.	.	4a\	.	4cc\	.	2d/	.	2a\	.	4cc\	.	4aa\	.
.	.	.	.	.	4a\	.	4ff#\	.	.	.	.	.	4f#\	.	4a\	.	.	.	.	.	4a\	.	4ff#\	.
=169	=169	=169	=169	=169	=169	=169	=169	=169	=169	=169	=169	=169	=169	=169	=169	=169	=169	=169	=169	=169	=169	=169	=169	=169
2G\	.	.	2g\	.	2b/	.	2gg 2b/	.	2G\	-men	2d\	-men	2g\	-men	2b\	-men	2B/	.	2g\	.	2b\	.	2gg\	.
2G\	.	.	2d 2G/	.	2b 2d 2G/	.	2gg 2b 2d/	.	2r	.	2r	.	2r	.	2r	.	2B/	.	2g\	.	2b\	.	2gg\	.
=170	=170	=170	=170	=170	=170	=170	=170	=170	=170	=170	=170	=170	=170	=170	=170	=170	=170	=170	=170	=170	=170	=170	=170	=170
2G\	.	.	2d 2G/	.	2b 2d 2G/	.	2gg 2b 2G/	.	1r	.	1r	.	1r	.	1r	.	2B/	.	2g\	.	1b	.	2gg\	.
2r	.	.	2r	.	2r	.	2r	.	.	.	.	.	.	.	.	.	2r	.	2r	.	.	.	2r	.
==	==	==	==	==	==	==	==	==	==	==	==	==	==	==	==	==	==	==	==	==	==	==	==	==
*-	*-	*-	*-	*-	*-	*-	*-	*-	*-	*-	*-	*-	*-	*-	*-	*-	*-	*-	*-	*-	*-	*-	*-	*-
!!!system-decoration: [(g1)][(g2)][(g3)][(g4)]<s12>
!!!RDF**kern: > = above
!!!RDF**kern: < = below
!!!RDF**kern: | = vertical stroke
!!!RDF**dynam: f = "for"
!!!AIN: 1 alto 1 bass 2 cor 2 flt 1 organ 1 soprn 1 tenor 1 viola 2 violn
!!!ENC: Berenika Jozajtis
!!!END: 2021-12-06
!!!ENC: Andrzej Kubiczek
!!!END: 2021-12-10
